!!!COM: Mr. Children
!!!OTL: HANABI
**kern	**dynam	**kern	**dynam	**kern	**dynam	**mxhm	**kern	**dynam	**kern	**dynam	**kern	**dynam	**kern	**dynam	**mxhm
*part7	*part7	*part6	*part6	*part5	*part5	*part5	*part4	*part4	*part3	*part3	*part2	*part2	*part1	*part1	*part1
*staff7	*	*staff6	*	*staff5	*	*	*staff4	*	*staff3	*	*staff2	*	*staff1	*	*
*I"コントラバス	*	*I"クラシックギター	*	*I"マンドチェロ	*	*	*I"アルトマンドラ	*	*I"マンドリン	*	*I"マンドリン	*	*I"钢琴	*	*
*I'Cb.	*	*I'Guit.	*	*I'Mncl.	*	*	*I'Mda.	*	*I'Mdn.	*	*I'Mdn.	*	*I'Pno.	*	*
*clefFv4	*	*clefGv2	*	*clefF4	*	*	*clefGv2	*	*clefG2	*	*clefG2	*	*clefG2	*	*
*k[b-e-a-d-g-]	*	*k[b-e-a-d-g-]	*	*k[b-e-a-d-g-]	*	*	*k[b-e-a-d-g-]	*	*k[b-e-a-d-g-]	*	*k[b-e-a-d-g-]	*	*k[b-e-a-d-g-]	*	*
*M4/4	*	*M4/4	*	*M4/4	*	*	*M4/4	*	*M4/4	*	*M4/4	*	*M4/4	*	*
*MM112	*	*MM112	*	*MM112	*	*	*MM112	*	*MM112	*	*MM112	*	*MM112	*	*
4r	.	4r	.	4r	.	.	4r	.	4r	.	8b-L	p	4r	.	.
.	.	.	.	.	.	.	.	.	.	.	8ccJ	.	.	.	.
=1	=1	=1	=1	=1	=1	=1	=1	=1	=1	=1	=1	=1	=1	=1	=1
1r	.	1r	.	1r	.	.	8FL	p	4.d- 4.f 4.b-	p	4dd-	.	1r	.	.
.	.	.	.	.	.	.	8A-	.	.	.	.	.	.	.	.
.	.	.	.	.	.	.	8B-	.	.	.	8fL	.	.	.	.
.	.	.	.	.	.	.	[8d-J	.	[8d- [8g- [8b-	.	[8g-J	.	.	.	.
.	.	.	.	.	.	.	2d-]	.	4.d-] 4.g-] 4.b-]	.	8g-L]	.	.	.	.
.	.	.	.	.	.	.	.	.	.	.	8ee-	.	.	.	.
.	.	.	.	.	.	.	.	.	.	.	8dd-	.	.	.	.
.	.	.	.	.	.	.	.	.	[8c [8e- [8a-	.	[8ccJ	.	.	.	.
=2	=2	=2	=2	=2	=2	=2	=2	=2	=2	=2	=2	=2	=2	=2	=2
1r	.	1r	.	1r	.	.	8A-L	.	4.c] 4.e-] 4.a-]	.	8ccL]	.	1r	.	.
.	.	.	.	.	.	.	8c	.	.	.	8b-	.	.	.	.
.	.	.	.	.	.	.	8e-	.	.	.	8cc	.	.	.	.
.	.	.	.	.	.	.	[8fJ	.	[8d- [8f [8a-	.	[8dd-J	.	.	.	.
.	.	.	.	.	.	.	2f]	.	4.d-] 4.f] 4.a-]	.	8dd-L]	.	.	.	.
.	.	.	.	.	.	.	.	.	.	.	8aa-	.	.	.	.
.	.	.	.	.	.	.	.	.	.	.	8gg-	.	.	.	.
.	.	.	.	.	.	.	.	.	[8d- [8g- [8b-	.	[8ffJ	.	.	.	.
=3	=3	=3	=3	=3	=3	=3	=3	=3	=3	=3	=3	=3	=3	=3	=3
1r	.	1r	.	1r	.	.	8G-L	.	4.d-] 4.g-] 4.b-]	.	4ff]	.	1r	.	.
.	.	.	.	.	.	.	8B-	.	.	.	.	.	.	.	.
.	.	.	.	.	.	.	8d-	.	.	.	8ee-L	.	.	.	.
.	.	.	.	.	.	.	[8e-J	.	[8d- [8gn [8b-	.	[8dd-J	.	.	.	.
.	.	.	.	.	.	.	2e-]	.	4d-] 4g] 4b-]	.	4dd-]	.	.	.	.
.	.	.	.	.	.	.	.	.	4d- 4g 4b-	.	4r	.	.	.	.
=4	=4	=4	=4	=4	=4	=4	=4	=4	=4	=4	=4	=4	=4	=4	=4
1r	.	2.r	.	1r	.	.	8A-L	.	4.d- 4.e- 4.a-	.	8dd-L	.	1r	.	.
.	.	.	.	.	.	.	8d-	.	.	.	8ee-	.	.	.	.
.	.	.	.	.	.	.	8e-	.	.	.	8b-	.	.	.	.
.	.	.	.	.	.	.	[8fJ	.	[8c [8e- [8an	.	[8ccJ	.	.	.	.
.	.	.	.	.	.	.	2f]	<[	8cL] 8e-] 8a]	.	4cc]	.	.	.	.
.	.	.	.	.	.	.	.	.	8g-	.	.	.	.	.	.
.	.	8B-L	mf	.	.	.	.	.	8f	<	8b-L	<	.	.	.
.	.	8cJ	.	.	.	.	.	.	8e-J	[[	8ccJ	[[	.	.	.
=5	=5	=5	=5	=5	=5	=5	=5	=5	=5	=5	=5	=5	=5	=5	=5
.	.	(8qc/	.	.	.	.	.	.	.	.	.	.	.	.	.
1BBB-	mf	8d-L)	.	8BB-L	mf	.	[2.D-	mf	4.d- 4.f 4.b-	mf	4dd-	mf	1r	.	.
.	.	8F	.	8F	.	.	.	.	.	.	.	.	.	.	.
.	.	8F	.	8d-	.	.	.	.	.	.	8fL	.	.	.	.
.	.	[8G-J	.	[8B-J	.	.	.	.	[8d- [8g- [8b-	.	[8g-J	.	.	.	.
.	.	8G-L]	.	4.B-]	.	.	.	.	4.d-] 4.g-] 4.b-]	.	8g-L]	.	.	.	.
.	.	(8qd-/	.	.	.	.	.	.	.	.	.	.	.	.	.
.	.	8e-)	.	.	.	.	.	.	.	.	8ee-	.	.	.	.
.	.	8d-	.	.	.	.	8D-L]	.	.	.	8dd-	.	.	.	.
.	.	[8E-J [8A- [8c	.	[8A-	.	.	[8E-J	.	[8c [8e- [8a-	.	[8ccJ	.	.	.	.
=6	=6	=6	=6	=6	=6	=6	=6	=6	=6	=6	=6	=6	=6	=6	=6
4.AAA-	.	8E-L] 8A-] 8c]	.	8A-L]	.	.	2E-_	.	4.c] 4.e-] 4.a-]	.	8ccL]	.	1r	.	.
.	.	8E- 8A- 8c	.	8B-	.	.	.	.	.	.	8b-	.	.	.	.
.	.	8E- 8A- 8c	.	8c	.	.	.	.	.	.	8cc	.	.	.	.
[8DD-	.	[8FJ [8A- [8d-	.	[8d-J	.	.	.	.	[8d- [8f [8a-	.	[8dd-J	.	.	.	.
2DD-]	.	8FL] 8A-] 8d-]	.	2d-]	.	.	8E-L]	.	4.d-] 4.f] 4.a-]	.	8dd-L]	.	.	.	.
.	.	8a-	.	.	.	.	8F	.	.	.	8aa-	.	.	.	.
.	.	8g-	.	.	.	.	8G-	.	.	.	8gg-	.	.	.	.
.	.	8fJ	.	.	.	.	8A-J	.	[8d- [8g- [8b-	.	[8ffJ	.	.	.	.
=7	=7	=7	=7	=7	=7	=7	=7	=7	=7	=7	=7	=7	=7	=7	=7
4.GGG-	.	4G- 4B- 4f	.	8GG-L	.	.	4B-	.	4.d-] 4.g-] 4.b-]	.	4ff]	.	1r	.	.
.	.	.	.	8D-	.	.	.	.	.	.	.	.	.	.	.
.	.	8r	.	8G-	.	.	8G-L	.	.	.	8ee-L	.	.	.	.
[8EE-	.	[8E- [8B- [8d- [8gn	.	[8E-J	.	.	[8GnJ	.	[8d- [8gn [8b-	.	[8dd-J	.	.	.	.
2EE-]	.	8E-L] 8B-] 8d-] 8g]	.	2E-]	.	.	8GL]	.	8d-L] 8g] 8b-]	.	8dd-L]	.	.	.	.
.	.	8e-J 8g	.	.	.	.	8GJ	.	8gJ 8cc	.	8ee-J	.	.	.	.
.	.	8qe-/	.	.	.	.	.	.	.	.	.	.	.	.	.
.	.	4f	.	.	.	.	4F	.	4b- 4dd-	.	4ff	.	.	.	.
=8	=8	=8	=8	=8	=8	=8	=8	=8	=8	=8	=8	=8	=8	=8	=8
1AAA-	>	8fL	>	8AA-L	>	.	4F	>	2.b- 2.dd-	>	1ff	>	1r	.	.
.	.	8A-	.	8D-J	.	.	.	.	.	.	.	.	.	.	.
.	.	8d-	.	[2A-	.	.	8A-L	.	.	.	.	.	.	.	.
.	.	[8fJ	.	.	.	.	[8fJ	.	.	.	.	.	.	.	.
.	.	8fL]	.	.	.	.	8fL]	.	.	.	.	.	.	.	.
.	.	8d-J	.	.	.	.	8d-J	.	.	.	.	.	.	.	.
.	.	4A-	.	8A-L]	.	.	4A-	.	4cc 4ee-	.	.	.	.	.	.
.	.	.	.	8A-J	.	.	.	.	.	.	.	.	.	.	.
=9	=9	=9	=9	=9	=9	=9	=9	=9	=9	=9	=9	=9	=9	=9	=9
1AA-	]]	8e-L	.	2.AA-	.	.	2A-	.	1a- 1cc	]]	1ee-	]]	2.r	.	.
.	.	8E-	.	.	.	.	.	.	.	.	.	.	.	.	.
.	.	8A-	.	.	.	.	.	.	.	.	.	.	.	.	.
.	.	8d-J	.	.	.	.	.	.	.	.	.	.	.	.	.
.	.	(8qc/	.	.	.	.	.	.	.	.	.	.	.	.	.
.	.	8d-L)	.	.	.	.	8d-L	.	.	.	.	.	.	.	.
.	.	8cJ	.	.	.	.	8cJ	.	.	.	.	.	.	.	.
.	.	4d-	]]	8r	.	.	4d-	]]	.	.	.	.	8r	.	.
.	.	.	.	8D-	p ]]	.	.	.	.	.	.	.	8d-	p	.
=10||	=10||	=10||	=10||	=10||	=10||	=10||	=10||	=10||	=10||	=10||	=10||	=10||	=10||	=10||	=10||
2D-	p	1r	.	8A-L	.	.	1r	.	1r	.	1r	.	8a-L	.	.
.	.	.	.	8A-	.	.	.	.	.	.	.	.	8a-	.	.
.	.	.	.	8A-	.	.	.	.	.	.	.	.	8a-	.	.
.	.	.	.	[8A-J	.	.	.	.	.	.	.	.	[8a-J	.	.
2D-	.	.	.	8A-L]	.	.	.	.	.	.	.	.	8a-L]	.	.
.	.	.	.	8F	.	.	.	.	.	.	.	.	8f	.	.
.	.	.	.	8A-	.	.	.	.	.	.	.	.	8a-	.	.
.	.	.	.	[8B-J	.	.	.	.	.	.	.	.	[8b-J	.	.
=11	=11	=11	=11	=11	=11	=11	=11	=11	=11	=11	=11	=11	=11	=11	=11
2C	.	1r	.	8B-L]	.	.	1r	.	1r	.	1r	.	8b-L]	.	.
.	.	.	.	8F	.	.	.	.	.	.	.	.	8f	.	.
.	.	.	.	8F	.	.	.	.	.	.	.	.	8f	.	.
.	.	.	.	[8A-J	.	.	.	.	.	.	.	.	[8a-J	.	.
2C	.	.	.	4A-]	.	.	.	.	.	.	.	.	4a-]	.	.
.	.	.	.	8r	.	.	.	.	.	.	.	.	8r	.	.
.	.	.	.	16FLL	.	.	.	.	.	.	.	.	16fLL	.	.
.	.	.	.	16FJJ	.	.	.	.	.	.	.	.	16fJJ	.	.
=12	=12	=12	=12	=12	=12	=12	=12	=12	=12	=12	=12	=12	=12	=12	=12
2BB-	.	1r	.	8d-L	.	.	1r	.	1r	.	1r	.	8dd-L	.	.
.	.	.	.	8c	.	.	.	.	.	.	.	.	8cc	.	.
.	.	.	.	8B-	.	.	.	.	.	.	.	.	8b-	.	.
.	.	.	.	[8A-J	.	.	.	.	.	.	.	.	[8a-J	.	.
2FF	.	.	.	8A-L]	.	.	.	.	.	.	.	.	8a-L]	.	.
.	.	.	.	8G-	.	.	.	.	.	.	.	.	8g-	.	.
.	.	.	.	8F	.	.	.	.	.	.	.	.	8f	.	.
.	.	.	.	[8G-J	.	.	.	.	.	.	.	.	[8g-J	.	.
=13	=13	=13	=13	=13	=13	=13	=13	=13	=13	=13	=13	=13	=13	=13	=13
2GG-	.	1r	.	8G-L]	.	.	1r	.	1r	.	1r	.	8g-L]	.	.
.	.	.	.	8F	.	.	.	.	.	.	.	.	8f	.	.
.	.	.	.	8D-	.	.	.	.	.	.	.	.	8d-	.	.
.	.	.	.	[8E-J	.	.	.	.	.	.	.	.	[8e-J	.	.
4AA-	.	.	.	8E-L]	.	.	.	.	.	.	.	.	8e-L]	.	.
.	.	.	.	8C	.	.	.	.	.	.	.	.	8c	.	.
4GG-	.	.	.	8B-	.	.	.	.	.	.	.	.	8b-	.	.
.	.	.	.	[8A-J	.	.	.	.	.	.	.	.	[8a-J	.	.
=14	=14	=14	=14	=14	=14	=14	=14	=14	=14	=14	=14	=14	=14	=14	=14
2FF	.	1r	.	8A-L]	.	.	1r	.	1r	.	1r	.	8a-L]	.	.
.	.	.	.	8F	.	.	.	.	.	.	.	.	8f	.	.
.	.	.	.	8e-	.	.	.	.	.	.	.	.	8ee-	.	.
.	.	.	.	[8d-J	.	.	.	.	.	.	.	.	[8dd-J	.	.
2BB-	.	.	.	4d-]	.	.	.	.	.	.	.	.	4dd-]	.	.
.	.	.	.	8B-L	.	.	.	.	.	.	.	.	8b-L	.	.
.	.	.	.	[8A-J	.	.	.	.	.	.	.	.	[8a-J	.	.
=15	=15	=15	=15	=15	=15	=15	=15	=15	=15	=15	=15	=15	=15	=15	=15
2EE-	.	1r	.	8A-L]	.	.	1r	.	1r	.	1r	.	8a-L]	.	.
.	.	.	.	8F	.	.	.	.	.	.	.	.	8f	.	.
.	.	.	.	8e-	.	.	.	.	.	.	.	.	8ee-	.	.
.	.	.	.	[8d-J	.	.	.	.	.	.	.	.	[8dd-J	.	.
2BB-	.	.	.	4d-]	.	.	.	.	.	.	.	.	4dd-]	.	.
.	.	.	.	8r	.	.	.	.	.	.	.	.	8r	.	.
.	.	.	.	8D-	.	.	.	.	.	.	.	.	8d-	.	.
=16	=16	=16	=16	=16	=16	=16	=16	=16	=16	=16	=16	=16	=16	=16	=16
2EE-	.	1r	.	8G-L	.	.	1r	.	1r	.	1r	.	8g-L	.	.
.	.	.	.	8G-	.	.	.	.	.	.	.	.	8g-	.	.
.	.	.	.	8G-	.	.	.	.	.	.	.	.	8g-	.	.
.	.	.	.	[8G-J	.	.	.	.	.	.	.	.	[8g-J	.	.
2EE-	.	.	.	8G-L]	.	.	.	.	.	.	.	.	8g-L]	.	.
.	.	.	.	8F	.	.	.	.	.	.	.	.	8f	.	.
.	.	.	.	8D-	.	.	.	.	.	.	.	.	8d-	.	.
.	.	.	.	[8E-J	.	.	.	.	.	.	.	.	[8e-J	.	.
=17	=17	=17	=17	=17	=17	=17	=17	=17	=17	=17	=17	=17	=17	=17	=17
2AA-	<	2.r	.	2.E-]	.	.	4d-	.	2.r	.	1r	.	2.e-]	.	.
.	.	.	.	.	.	.	4B-	.	.	.	.	.	.	.	.
4CC	.	.	.	.	.	.	8A-L	.	.	.	.	.	.	.	.
.	.	.	.	.	.	.	8E-	.	.	.	.	.	.	.	.
*	*	*8va	*	*	*	*	*	*	*	*	*	*	*	*	*
4AAA-	mp [[	4a-	mp	4r	.	.	8F	.	8r	.	.	.	8r	.	.
.	.	.	.	.	.	.	8G-J	.	8d-	mp	.	.	8d-	mp	.
=18||	=18||	=18||	=18||	=18||	=18||	=18||	=18||	=18||	=18||	=18||	=18||	=18||	=18||	=18||	=18||
2DD-	.	1dd-	.	1r	.	.	[1D- [1A-	mp	8a-L	.	1r	.	8a-L	.	.
.	.	.	.	.	.	.	.	.	8a-	.	.	.	8a-	.	.
.	.	.	.	.	.	.	.	.	8a-	.	.	.	8a-	.	.
.	.	.	.	.	.	.	.	.	[8a-J	.	.	.	[8a-J	.	.
2DD-	.	.	.	.	.	.	.	.	8a-L]	.	.	.	8a-L]	.	.
.	.	.	.	.	.	.	.	.	8f	.	.	.	8f	.	.
.	.	.	.	.	.	.	.	.	8a-	.	.	.	8a-	.	.
.	.	.	.	.	.	.	.	.	[8b-J	.	.	.	[8b-J	.	.
=19	=19	=19	=19	=19	=19	=19	=19	=19	=19	=19	=19	=19	=19	=19	=19
2CC	.	2.r	.	1r	.	.	1D-] 1A-]	.	8b-L]	.	1r	.	8b-L]	.	.
.	.	.	.	.	.	.	.	.	8f	.	.	.	8f	.	.
.	.	.	.	.	.	.	.	.	8f	.	.	.	8f	.	.
.	.	.	.	.	.	.	.	.	[8a-J	.	.	.	[8a-J	.	.
2CC	.	.	.	.	.	.	.	.	4a-]	.	.	.	4a-]	.	.
.	.	4aa-	.	.	.	.	.	.	8r	.	.	.	8r	.	.
.	.	.	.	.	.	.	.	.	8f	.	.	.	8f	.	.
=20	=20	=20	=20	=20	=20	=20	=20	=20	=20	=20	=20	=20	=20	=20	=20
2BBB-	.	1dd-	.	1r	.	.	4.D- 4.F	.	8dd-L	.	1r	.	8dd-L	.	.
.	.	.	.	.	.	.	.	.	8cc	.	.	.	8cc	.	.
.	.	.	.	.	.	.	.	.	8b-	.	.	.	8b-	.	.
.	.	.	.	.	.	.	[8D- [8F	.	[8a-J	.	.	.	[8a-J	.	.
2FFF	.	.	.	.	.	.	2D-] 2F]	.	8a-L]	.	.	.	8a-L]	.	.
.	.	.	.	.	.	.	.	.	8g-	.	.	.	8g-	.	.
.	.	.	.	.	.	.	.	.	8f	.	.	.	8f	.	.
.	.	.	.	.	.	.	.	.	[8g-J	.	.	.	[8g-J	.	.
*	*	*X8va	*	*	*	*	*	*	*	*	*	*	*	*	*
=21	=21	=21	=21	=21	=21	=21	=21	=21	=21	=21	=21	=21	=21	=21	=21
2GGG-	.	1r	.	1r	.	.	4.D- 4.G-	.	8g-L]	.	4.r	.	8g-L]	.	.
.	.	.	.	.	.	.	.	.	8f	.	.	.	8f	.	.
.	.	.	.	.	.	.	.	.	8d-	.	.	.	8d-	.	.
.	.	.	.	.	.	.	[8C [8E-	.	[8e-J	.	[8e-	p	[8e-J	.	.
4AAA-	.	.	.	.	.	.	8CL] 8E-]	.	8e-]	.	8e-L]	.	8e-]	.	.
.	.	.	.	.	.	.	8F	.	8r	.	8f	.	8r	.	.
4GGG-	.	.	.	.	.	.	8G-	.	8b-L	.	8g-	.	8b-L	.	.
.	.	.	.	.	.	.	8A-J	.	[8a-J	.	8a-J	.	[8a-J	.	.
=22	=22	=22	=22	=22	=22	=22	=22	=22	=22	=22	=22	=22	=22	=22	=22
2FFF	.	1r	.	8FL	mp	.	4.F 4.c	.	8a-L]	.	4.a-	.	8a-L]	.	.
.	.	.	.	8A-	.	.	.	.	8f	.	.	.	8f	.	.
.	.	.	.	8c	.	.	.	.	8ee-	.	.	.	8ee-	.	.
.	.	.	.	[8d-J	.	.	[8B- [8d-	.	[8dd-J	.	[8b-	.	[8dd-J	.	.
2BBB-	.	.	.	2d-]	.	.	2B-] 2d-]	.	4dd-]	.	4b-]	.	4dd-]	.	.
.	.	.	.	.	.	.	.	.	8b-L	.	4r	.	8b-L	.	.
.	.	.	.	.	.	.	.	.	[8a-J	.	.	.	[8a-J	.	.
=23	=23	=23	=23	=23	=23	=23	=23	=23	=23	=23	=23	=23	=23	=23	=23
2FFF	.	1r	.	8FL	.	.	4.F 4.c	.	8a-L]	.	4.a-	.	8a-L]	.	.
.	.	.	.	8A-	.	.	.	.	8f	.	.	.	8f	.	.
.	.	.	.	8c	.	.	.	.	8ee-	.	.	.	8ee-	.	.
.	.	.	.	[8d-J	.	.	[8F [8d-	.	[8dd-J	.	[8b-	.	[8dd-J	.	.
2BBB-	.	.	.	4d-]	.	.	2F] 2d-]	.	4dd-]	.	4b-]	.	4dd-]	.	.
.	.	.	.	4F	.	.	.	.	8r	.	4r	.	8r	.	.
.	.	.	.	.	.	.	.	.	8d-	.	.	.	8d-	.	.
=24	=24	=24	=24	=24	=24	=24	=24	=24	=24	=24	=24	=24	=24	=24	=24
2EE-	.	1r	.	4BB-	.	.	1B- 1d-	.	8g-L	.	2b-	.	8g-L	.	.
.	.	.	.	.	.	.	.	.	8g-	.	.	.	8g-	.	.
.	.	.	.	8D-L	.	.	.	.	8g-	.	.	.	8g-	.	.
.	.	.	.	[8G-J	.	.	.	.	[8g-J	.	.	.	[8g-J	.	.
2EE-	.	.	.	8G-L]	.	.	.	.	8g-L]	.	2g-	.	8g-L]	.	.
.	.	.	.	8B-J	.	.	.	.	8a-	.	.	.	8a-	.	.
.	.	.	.	4G-	.	.	.	.	8b-	.	.	.	8b-	.	.
.	.	.	.	.	.	.	.	.	[8a-J	.	.	.	[8a-J	.	.
=25	=25	=25	=25	=25	=25	=25	=25	=25	=25	=25	=25	=25	=25	=25	=25
2AA-	<	1r	.	2c	<	.	2c 2e-	<	4.a-]	<	2a-	<	4.a-]	<	.
.	.	.	.	.	.	.	.	.	[8an	.	.	.	[8an	.	.
2FF	[[	.	.	8cL	.	.	8fL	.	4a]	.	4an	.	4a]	.	.
.	.	.	.	8AnJ	.	.	8e-	.	.	.	.	.	.	.	.
.	.	.	.	4F	[[	.	8c	.	8fL	[ mf	8b-L	[ mf	8b-L	[ mf	.
.	.	.	.	.	.	.	8AnJ	[[	8aJ	.	8ccJ	.	8ccJ	.	.
=26||	=26||	=26||	=26||	=26||	=26||	=26||	=26||	=26||	=26||	=26||	=26||	=26||	=26||	=26||	=26||
2BBB-	mf	4.F 4.B- 4.d- 4.f	mp	4.F	mf	.	8A-L	mf	8b-L	.	8dd-L	.	8dd-L	.	.
.	.	.	.	.	.	.	8B-	.	8f	.	8a-	.	8a-	.	.
.	.	.	.	.	.	.	8d-	.	8d-	.	8f	.	8f	.	.
.	.	[8G- [8B- [8d- [8g-	.	8G-	.	.	[8g-J	.	[8d-J	.	[8g-J	.	[8g-J	.	.
2BBB-	.	4G-] 4B-] 4d-] 4g-]	.	4G-	.	.	2g-]	.	8d-L]	.	8g-L]	.	8g-L]	.	.
.	.	.	.	.	.	.	.	.	8cc	.	8ee-	.	8ee-	.	.
.	.	8G-L 8B- 8d- 8g-	.	4D-	.	.	.	.	8b-	.	8dd-	.	8dd-	.	.
.	.	[8A-J [8c [8e- [8a-	.	.	.	.	.	.	[8a-J	.	[8ccJ	.	[8ccJ	.	.
=27	=27	=27	=27	=27	=27	=27	=27	=27	=27	=27	=27	=27	=27	=27	=27
2AAA-	.	8A-L] 8c] 8e-] 8a-]	.	4.E-	.	.	8cL	.	8a-L]	.	8ccL]	.	8ccL]	.	.
.	.	8A- 8c 8e- 8a-	.	.	.	.	8d-	.	8f	.	8b-	.	8b-	.	.
.	.	8A- 8c 8e- 8a-	.	.	.	.	8e-	.	8f	.	8cc	.	8cc	.	.
.	.	[8A-J [8d- [8f [8a-	.	[8F	.	.	[8fJ	.	8fJ	.	8dd-J	.	8dd-J	.	.
2DD-	.	4A-] 4d-] 4f] 4a-]	.	2F]	.	.	2f]	.	8r	.	8r	.	8r	.	.
.	.	.	.	.	.	.	.	.	8dd-L	.	8aa-L	.	8aa-L	.	.
.	.	8A-L 8d- 8f 8a-	.	.	.	.	.	.	8dd-	.	8gg-	.	8gg-	.	.
.	.	8A-J 8d- 8f 8a-	.	.	.	.	.	.	[8b-J	.	[8ffJ	.	[8ffJ	.	.
=28	=28	=28	=28	=28	=28	=28	=28	=28	=28	=28	=28	=28	=28	=28	=28
2GGG-	.	4G- 4B- 4d- 4g-	.	2D-	.	.	8B-L	.	8b-L]	.	8ffL]	.	8ffL]	.	.
.	.	.	.	.	.	.	8d-	.	8a-	.	8ee-	.	8ee-	.	.
.	.	8G-L 8B- 8d- 8g-	.	.	.	.	8e-	.	8a-	.	8ee-	.	8ee-	.	.
.	.	[8E-J [8B- [8d- [8gn	.	.	.	.	[8gnJ	.	[8gnJ	.	[8dd-J	.	[8dd-J	.	.
2EE-	.	8E-L] 8B-] 8d-] 8g]	.	2E-	.	.	2g]	.	4g]	.	4dd-]	.	4dd-]	.	.
.	.	8E-J 8B- 8d- 8g	.	.	.	.	.	.	.	.	.	.	.	.	.
.	.	4E- 4B- 4d- 4g	.	.	.	.	.	.	8r	.	8r	.	8r	.	.
.	.	.	.	.	.	.	.	.	8b-	.	8b-	.	8b-	.	.
=29	=29	=29	=29	=29	=29	=29	=29	=29	=29	=29	=29	=29	=29	=29	=29
2AAA-	.	4.E- 4.A- 4.d- 4.a-	.	2A-	.	.	8d-L	.	8dd-L	.	8dd-L	.	8dd-L	.	.
.	.	.	.	.	.	.	8e-	.	8ee-	.	8ee-	.	8ee-	.	.
.	.	.	.	.	.	.	8a-	.	8b-	.	8b-	.	8b-	.	.
.	.	8F 8An 8c 8f	.	.	.	.	[8anJ	.	[8ccJ	.	[8ccJ	.	[8ccJ	.	.
2FFF	.	8fL	.	2An	.	.	8aL]	.	8ccL]	.	8ccL]	.	8ccL]	.	.
.	.	8c	.	.	.	.	8fJ	.	8b-	.	8b-	.	8b-	.	.
.	.	8A	.	.	.	.	4f	.	8cc	.	8cc	.	8cc	.	.
.	.	8FJ	.	.	.	.	.	.	[8b-J	.	[8dd-J	.	[8dd-J	.	.
=30	=30	=30	=30	=30	=30	=30	=30	=30	=30	=30	=30	=30	=30	=30	=30
2BBB-	.	4.F 4.B- 4.d- 4.f	.	4.F	.	.	8B-L	.	8b-L]	.	8dd-L]	.	8dd-L]	.	.
.	.	.	.	.	.	.	8c	.	8d-	.	8f	.	8f	.	.
.	.	.	.	.	.	.	8d-	.	8d-	.	8f	.	8f	.	.
.	.	[8G- [8B- [8d- [8g-	.	8G-	.	.	[8e-J	.	[8d-J	.	[8g-J	.	[8g-J	.	.
2BBB-	.	4G-] 4B-] 4d-] 4g-]	.	4G-	.	.	2e-]	.	8d-L]	.	8g-L]	.	8g-L]	.	.
.	.	.	.	.	.	.	.	.	8cc	.	8ee-	.	8ee-	.	.
.	.	8G-L 8B- 8d- 8g-	.	4D-	.	.	.	.	8b-	.	8dd-	.	8dd-	.	.
.	.	[8A-J [8c [8e- [8a-	.	.	.	.	.	.	[8a-J	.	[8ccJ	.	[8ccJ	.	.
=31	=31	=31	=31	=31	=31	=31	=31	=31	=31	=31	=31	=31	=31	=31	=31
2AAA-	.	4A-] 4c] 4e-] 4a-]	.	4.E-	.	.	8cL	.	8a-L]	.	8ccL]	.	8ccL]	.	.
.	.	.	.	.	.	.	8d-	.	8f	.	8b-	.	8b-	.	.
.	.	8A-L 8c 8e- 8a-	.	.	.	.	8e-	.	8f	.	8cc	.	8cc	.	.
.	.	[8A-J [8d- [8f [8a-	.	[8F	.	.	[8fJ	.	8fJ	.	8dd-J	.	8dd-J	.	.
2DD-	.	8A-L] 8d-] 8f] 8a-]	.	2F]	.	.	2f]	.	8r	.	8r	.	8r	.	.
.	.	8a-	.	.	.	.	.	.	8dd-L	.	8aa-L	.	8aa-L	.	.
.	.	8g-	.	.	.	.	.	.	8dd-	.	8gg-	.	8gg-	.	.
.	.	[8fJ	.	.	.	.	.	.	[8b-J	.	[8ffJ	.	[8ffJ	.	.
=32	=32	=32	=32	=32	=32	=32	=32	=32	=32	=32	=32	=32	=32	=32	=32
2GGG-	.	4G- 4B- 4d- 4f]	.	2D-	.	.	8B-L	.	8b-L]	.	8ffL]	.	8ffL]	.	.
.	.	.	.	.	.	.	8d-	.	8a-	.	8ee-	.	8ee-	.	.
.	.	8G-L 8B- 8d- 8f	.	.	.	.	8e-	.	8a-	.	8ee-	.	8ee-	.	.
.	.	[8E-J [8B- [8d- [8gn	.	.	.	.	[8gnJ	.	[8gnJ	.	[8dd-J	.	[8dd-J	.	.
2EE-	.	8E-L] 8B-] 8d-] 8g]	.	8D-L	.	.	2g]	.	8gL]	.	8dd-L]	.	8dd-L]	.	.
.	.	8e-J	.	8E-J	.	.	.	.	8a-J	.	8ee-J	.	8ee-J	.	.
.	.	4f	.	4F	.	.	.	.	8.b-L	.	8.ffL	.	8.ffL	.	.
.	.	.	.	.	.	.	.	.	[16a-Jk	.	[16ee-Jk	.	[16ee-Jk	.	.
=33	=33	=33	=33	=33	=33	=33	=33	=33	=33	=33	=33	=33	=33	=33	=33
2.AA-	.	4A- 4c 4e- 4a-	.	4E-	>	.	8A-L	>	2a-]	>	2ee-]	>	2ee-]	.	.
.	.	.	.	.	.	.	8c	.	.	.	.	.	.	.	.
.	.	8A-L	.	8E-L	.	.	8e-	.	.	.	.	.	.	.	.
.	.	8d-J	.	[8AA-J	.	.	[8a-J	.	.	.	.	.	.	.	.
.	.	24cLL	.	8AA-L]	.	.	4a-]	.	2r	]]	2r	]]	16r	.	.
.	.	24d-	.	.	.	.	.	.	.	.	.	.	.	.	.
.	.	.	.	.	.	.	.	.	.	.	.	.	16r	.	.
.	.	24cJ	.	.	.	.	.	.	.	.	.	.	.	.	.
.	.	8B-J	.	[8EE-J	.	.	.	.	.	.	.	.	8r	.	.
4AAA-	.	4A-	.	4EE-]	]]	.	8r	]	.	.	.	.	8r	.	.
.	.	.	.	.	.	.	8D-	mf	.	.	.	.	8d-	mf	.
=34||	=34||	=34||	=34||	=34||	=34||	=34||	=34||	=34||	=34||	=34||	=34||	=34||	=34||	=34||	=34||
*	*	*	*	*	*	*	*	*	*^	*	*	*	*	*	*
1r	.	4D- 4F 4A- 4d- 4f	p	1r	.	.	8A-L	.	2r	2r	.	1r	.	8a-L	.	.
.	.	.	.	.	.	.	8A-	.	.	.	.	.	.	8a-	.	.
.	.	8D-L 8F 8A- 8d- 8f	.	.	.	.	8A-	.	.	.	.	.	.	8a-	.	.
.	.	[8D-J [8F [8A- [8d- [8f	.	.	.	.	[8A-J	.	.	.	.	.	.	[8a-J	.	.
.	.	8D-L] 8F] 8A-] 8d-] 8f]	.	.	.	.	8A-L]	.	2ddd-	[2aa-	p	.	.	8a-L]	.	.
.	.	8D- 8F 8A- 8d- 8f	.	.	.	.	8F	.	.	.	.	.	.	8f	.	.
.	.	8D- 8F 8A- 8d- 8f	.	.	.	.	8A-	.	.	.	.	.	.	8a-	.	.
.	.	8D-J 8F 8A- 8d- 8f	.	.	.	.	[8B-J	.	.	.	.	.	.	[8b-J	.	.
=35	=35	=35	=35	=35	=35	=35	=35	=35	=35	=35	=35	=35	=35	=35	=35	=35
1r	.	4AA- 4E- 4A- 4c 4e- 4a-	.	1r	.	.	8B-L]	.	1ccc	1aa-]	.	1r	.	8b-L]	.	.
.	.	.	.	.	.	.	8F	.	.	.	.	.	.	8f	.	.
.	.	8AA-L 8E- 8A- 8c 8e- 8a-	.	.	.	.	8F	.	.	.	.	.	.	8f	.	.
.	.	[8AA-J [8E- [8A- [8c [8e- [8a-	.	.	.	.	[8A-J	.	.	.	.	.	.	[8a-J	.	.
.	.	8AA-L] 8E-] 8A-] 8c] 8e-] 8a-]	.	.	.	.	4A-]	.	.	.	.	.	.	4a-]	.	.
.	.	8AA- 8E- 8A- 8c 8e- 8a-	.	.	.	.	.	.	.	.	.	.	.	.	.	.
.	.	8AA- 8E- 8A- 8c 8e- 8a-	.	.	.	.	8r	.	.	.	.	.	.	8r	.	.
.	.	8AA-J 8E- 8A- 8c 8e- 8a-	.	.	.	.	8F	.	.	.	.	.	.	8f	.	.
=36	=36	=36	=36	=36	=36	=36	=36	=36	=36	=36	=36	=36	=36	=36	=36	=36
1r	.	8BB-L 8F 8B- 8d- 8f	.	1r	.	.	8d-L	.	[1bb-	4.bb-	.	1r	.	8dd-L	.	.
.	.	8BB- 8F 8B- 8d- 8f	.	.	.	.	8c	.	.	.	.	.	.	8cc	.	.
.	.	8BB- 8F 8B- 8d- 8f	.	.	.	.	8B-	.	.	.	.	.	.	8b-	.	.
.	.	[8AA-J [8E- [8A- [8c [8e- [8a-	.	.	.	.	[8A-J	.	.	[8aa-	.	.	.	[8a-J	.	.
.	.	8AA-L] 8E-] 8A-] 8c] 8e-] 8a-]	.	.	.	.	8A-L]	.	.	4.aa-]	.	.	.	8a-L]	.	.
.	.	8AA- 8E- 8A- 8c 8e- 8a-	.	.	.	.	8G-	.	.	.	.	.	.	8g-	.	.
.	.	8AA- 8E- 8A- 8c 8e- 8a-	.	.	.	.	8F	.	.	.	.	.	.	8f	.	.
.	.	8AA-J 8E- 8A- 8c 8e- 8a-	.	.	.	.	[8G-J	.	.	[8gg-	.	.	.	[8g-J	.	.
=37	=37	=37	=37	=37	=37	=37	=37	=37	=37	=37	=37	=37	=37	=37	=37	=37
1r	.	8GG-L 8D- 8G- 8B- 8d- 8g-	.	1r	.	.	8G-L]	.	4.bb-]	8gg-]	.	1r	.	8g-L]	.	.
.	.	8GG- 8D- 8G- 8B- 8d- 8g-	.	.	.	.	8F	.	.	4gg-	.	.	.	8f	.	.
.	.	8GG- 8D- 8G- 8B- 8d- 8g-	.	.	.	.	8D-	.	.	.	.	.	.	8d-	.	.
.	.	[8AA-J [8E- [8A- [8c [8e- [8a-	.	.	.	.	8E-J	.	[8cc	[8a-	.	.	.	8e-J	.	.
.	.	8AA-L] 8E-] 8A-] 8c] 8e-] 8a-]	.	.	.	.	8r	.	8ccL]	8a-L]	.	.	.	8r	.	.
.	.	8AA- 8E- 8A- 8c 8e- 8a-	.	.	.	.	8AA-L	.	8dd-J	8b-J	.	.	.	8A-L	.	.
.	.	8AA- 8E- 8A- 8c 8e- 8a-	.	.	.	.	8B-	.	4ee-	4cc	.	.	.	8b-	.	.
.	.	8AA-J 8E- 8A- 8c 8e- 8a-	.	.	.	.	[8A-J	.	.	.	.	.	.	[8a-J	.	.
=38	=38	=38	=38	=38	=38	=38	=38	=38	=38	=38	=38	=38	=38	=38	=38	=38
1r	.	4FF 4C 4F 4A- 4c 4f	.	1r	.	.	8A-L]	.	2.ff	4.cc	.	1r	.	8a-L]	.	.
.	.	.	.	.	.	.	8FJ	.	.	.	.	.	.	8fJ	.	.
.	.	8FFL 8C 8F 8A- 8c 8f	.	.	.	.	8.e-L	.	.	.	.	.	.	8.ee-L	.	.
.	.	[8BB-J [8F [8B- [8d- [8f	.	.	.	.	.	.	.	[8dd-	.	.	.	.	.	.
.	.	.	.	.	.	.	[16d-Jk	.	.	.	.	.	.	[16dd-Jk	.	.
.	.	8BB-L] 8F] 8B-] 8d-] 8f]	.	.	.	.	4d-]	.	.	2dd-]	.	.	.	4dd-]	.	.
.	.	8BB- 8F 8B- 8d- 8f	.	.	.	.	.	.	.	.	.	.	.	.	.	.
.	.	8BB- 8F 8B- 8d- 8f	.	.	.	.	8B-L	.	4bb-	.	.	.	.	8b-L	.	.
.	.	8BB-J 8F 8B- 8d- 8f	.	.	.	.	[8A-J	.	.	.	.	.	.	[8a-J	.	.
=39	=39	=39	=39	=39	=39	=39	=39	=39	=39	=39	=39	=39	=39	=39	=39	=39
1r	.	4FF 4C 4F 4A- 4c 4f	.	1r	.	.	8A-L]	.	[2aa-	1ff	.	1r	.	8a-L]	.	.
.	.	.	.	.	.	.	8FJ	.	.	.	.	.	.	8fJ	.	.
.	.	8FFL 8C 8F 8A- 8c 8f	.	.	.	.	8.e-L	.	.	.	.	.	.	8.ee-L	.	.
.	.	[8BB-J [8F [8B- [8d- [8f	.	.	.	.	.	.	.	.	.	.	.	.	.	.
.	.	.	.	.	.	.	[16d-Jk	.	.	.	.	.	.	[16dd-Jk	.	.
.	.	8BB-L] 8F] 8B-] 8d-] 8f]	.	.	.	.	4d-]	.	8aa-]	.	.	.	.	4dd-]	.	.
.	.	8BB- 8F 8B- 8d- 8f	.	.	.	.	.	.	4bb-	.	.	.	.	.	.	.
.	.	8BB- 8F 8B- 8d- 8f	.	.	.	.	8r	.	.	.	.	.	.	8r	.	.
.	.	8BB-J 8F 8B- 8d- 8f	.	.	.	.	16E-LL	.	8ccc	.	.	.	.	16e-LL	.	.
.	.	.	.	.	.	.	16E-JJ	.	.	.	.	.	.	16e-JJ	.	.
=40	=40	=40	=40	=40	=40	=40	=40	=40	=40	=40	=40	=40	=40	=40	=40	=40
1r	.	4E- 4B- 4d- 4g-	.	1r	.	.	8G-L	.	[2.ddd-	[2.gg-	.	1r	.	8g-L	.	.
.	.	.	.	.	.	.	8G-	.	.	.	.	.	.	8g-	.	.
.	.	8E-L 8B- 8d- 8g-	.	.	.	.	8G-	.	.	.	.	.	.	8g-	.	.
.	.	[8E-J [8B- [8d- [8g-	.	.	.	.	[8G-J	.	.	.	.	.	.	[8g-J	.	.
.	.	8E-L] 8B-] 8d-] 8g-]	.	.	.	.	8G-L]	.	.	.	.	.	.	8g-L]	.	.
.	.	8E- 8B- 8d- 8g-	.	.	.	.	8A-	.	.	.	.	.	.	8a-	.	.
.	.	8E- 8B- 8d- 8g-	.	.	.	.	8B-	.	8ddd-L]	8gg-L]	.	.	.	8b-	.	.
.	.	8E-J 8B- 8d- 8g-	.	.	.	.	[8A-J	.	8ee-J	8b-J	.	.	.	[8a-J	.	.
=41	=41	=41	=41	=41	=41	=41	=41	=41	=41	=41	=41	=41	=41	=41	=41	=41
1r	.	4E- 4B- 4d- 4g-	.	1r	.	.	4.A-]	.	2.aa-	2.ee-	.	1r	.	4.a-]	.	.
.	.	4E- 4B- 4d- 4g-	.	.	.	.	.	.	.	.	.	.	.	.	.	.
.	.	.	.	.	.	.	16G-LL	.	.	.	.	.	.	16g-LL	.	.
.	.	.	.	.	.	.	16FJJ	.	.	.	.	.	.	16fJJ	.	.
.	.	4AA- 4E- 4A- 4c 4e- 4a-	.	.	.	.	4E-	.	.	.	.	.	.	4e-	.	.
.	.	4AA- 4E- 4A- 4c 4e- 4a-	.	.	.	.	8D-L	.	4a-	4a-	.	.	.	8d-L	.	.
.	.	.	.	.	.	.	[8D-J	.	.	.	.	.	.	[8d-J	.	.
*	*	*	*	*	*	*	*	*	*v	*v	*	*	*	*	*	*
=42	=42	=42	=42	=42	=42	=42	=42	=42	=42	=42	=42	=42	=42	=42	=42
1r	.	4.G- 4.d- 4.g- 4.a-	<	1r	<	.	4D-]	<	8g-L	<	8g-L	<	4d-]	.	.
.	.	.	.	.	.	.	.	.	8a-J	.	8a-	.	.	.	.
.	.	.	.	.	.	.	4r	.	2.dd-	.	8dd-	.	4r	.	.
.	.	[8A- [8d- [8f [8a-	.	.	.	.	.	.	.	.	[8fJ	.	.	.	.
.	.	4A-] 4d-] 4f] 4a-]	.	.	.	.	2r	.	.	.	8fL]	.	2r	.	.
.	.	.	.	.	.	.	.	.	.	.	8a-J	.	.	.	.
.	.	4A- 4d- 4f 4a-	.	.	.	.	.	.	.	.	4dd-	.	.	.	.
=43	=43	=43	=43	=43	=43	=43	=43	=43	=43	=43	=43	=43	=43	=43	=43
1r	.	4.G- 4.d- 4.g- 4.a-	.	8GG-L	.	.	8G-L	.	8g-L	.	1r	.	1r	.	.
.	.	.	.	8AA-	.	.	8A-	.	8a-J	.	.	.	.	.	.
.	.	.	.	8D-	.	.	8d-	.	[4dd-	.	.	.	.	.	.
.	.	[8A- [8d- [8f [8a-	.	[8FFJ	.	.	[8FJ	.	.	.	.	.	.	.	.
.	.	4A-] 4d-] 4f] 4a-]	.	8FFL]	.	.	8FL]	.	8dd-L]	.	.	.	.	.	.
.	.	.	.	8AA-J	.	.	8A-J	.	8ee-	.	.	.	.	.	.
.	.	4A- 4d- 4f 4a-	.	4D-	.	.	4d-	.	8ff	.	.	.	.	.	.
.	.	.	.	.	.	.	.	.	8gg-J	.	.	.	.	.	.
=44	=44	=44	=44	=44	=44	=44	=44	=44	=44	=44	=44	=44	=44	=44	=44
8GGG-L	<	4.G- 4.d- 4.g- 4.a-	.	8GG-L	.	.	8G-L	.	2.aa-	.	8g-L	.	1r	.	.
8AAA-	.	.	.	8AA-	.	.	8A-	.	.	.	8a-	.	.	.	.
8DD-	.	.	.	8D-	.	.	8d-	.	.	.	8dd-	.	.	.	.
[8FFFJ	.	[8A- [8d- [8f [8a-	.	[8FFJ	.	.	[8FJ	.	.	.	[8fJ	.	.	.	.
8FFF]	.	8A-] 8d-] 8f] 8a-]	.	8FFL]	.	.	8FL]	.	.	.	8fL]	.	.	.	.
4AAA-	.	4A- 4d- 4f 4a-	.	8GG-	.	.	8G-	.	.	.	8g-	.	.	.	.
.	.	.	.	8EE-	.	.	8E-	.	8bb-L	.	8f	.	.	.	.
[8DD-	.	[8D- [8A- [8d- [8f [8a-	.	[8DD-J	.	.	[8D-J	.	[8ddd-J	.	[8d-J	.	.	.	.
=45	=45	=45	=45	=45	=45	=45	=45	=45	=45	=45	=45	=45	=45	=45	=45
8DD-L]	.	8D-L] 8A-] 8d-] 8f] 8a-]	.	8DD-L]	.	.	8D-L]	.	2ddd-]	.	2d-]	.	2r	.	.
8DD-	.	8D- 8A- 8d- 8f 8a-	.	8DD-	.	.	8D-	.	.	.	.	.	.	.	.
8DD-	.	8D- 8A- 8d- 8f 8a-	.	8DD-	.	.	8D-	.	.	.	.	.	.	.	.
8DD-J	.	8D-J 8A- 8d- 8f 8a-	.	8DD-J	.	.	8D-J	.	.	.	.	.	.	.	.
8DD-L	.	8D-L 8A- 8d- 8f 8a-	.	8DD-L	.	.	8FL	.	8aa-L	.	2r	[[	8a-L	.	.
8DD-	.	8D- 8A- 8d- 8f 8a-	.	8DD-	.	.	8G-	.	8bb-	.	.	.	8b-	.	.
8DD-	.	8D- 8A- 8d- 8f 8a-	.	8DD-	.	.	8A-	.	8ddd-	.	.	.	8dd-	.	.
[8GG-J	f [[	[8GG-J [8D- [8G- [8B- [8d- [8g-	f [[	[8G-J	f [[	.	[8d-J	f [[	8fffJ	[[	.	.	8ffJ	.	.
=46||	=46||	=46||	=46||	=46||	=46||	=46||	=46||	=46||	=46||	=46||	=46||	=46||	=46||	=46||	=46||
1GG-]	.	8GG-L] 8D-] 8G-] 8B-] 8d-] 8g-]	.	4G-]	.	.	2.d-_	.	8r	.	8r	.	8r	.	.
.	.	8GG-J 8D- 8G- 8B- 8d- 8g-	.	.	.	.	.	.	8dd-L	f	8ffL	f	8ffL	f	.
.	.	8GG-L 8D- 8G- 8B- 8d- 8g-	.	4G-	.	.	.	.	8dd-	.	8ff	.	8ff	.	.
.	.	16GG-L 16D- 16G- 16B- 16d- 16g-	.	.	.	.	.	.	8dd-J	.	8ffJ	.	8ffJ	.	.
.	.	16GG-JJ 16D- 16G- 16B- 16d- 16g-	.	.	.	.	.	.	.	.	.	.	.	.	.
.	.	8GG-L 8D- 8G- 8B- 8d- 8g-	.	8r	.	.	.	.	4.dd-	.	4.ff	.	4.ff	.	.
.	.	16GG-L 16D- 16G- 16B- 16d- 16g-	.	[8G-	.	.	.	.	.	.	.	.	.	.	.
.	.	16GG-JJ 16D- 16G- 16B- 16d- 16g-	.	.	.	.	.	.	.	.	.	.	.	.	.
.	.	8GG-L 8D- 8G- 8B- 8d- 8g-	.	4G-]	.	.	8d-L]	.	.	.	.	.	.	.	.
.	.	16GG-L 16D- 16G- 16B- 16d- 16g-	.	.	.	.	8d-J	.	8dd-	.	8ff	.	8ff	.	.
.	.	16GG-JJ 16D- 16G- 16B- 16d- 16g-	.	.	.	.	.	.	.	.	.	.	.	.	.
=47	=47	=47	=47	=47	=47	=47	=47	=47	=47	=47	=47	=47	=47	=47	=47
2GG-	.	8AA-L 8E- 8A- 8c 8e- 8a-	.	4.A-	.	.	[2.e-	.	8dd-L	.	8ffL	.	8ffL	.	.
.	.	16AA-L 16E- 16A- 16c 16e- 16a-	.	.	.	.	.	.	8cc	.	8ee-	.	8ee-	.	.
.	.	16AA-JJ 16E- 16A- 16c 16e- 16a-	.	.	.	.	.	.	.	.	.	.	.	.	.
.	.	8AA-L 8E- 8A- 8c 8e- 8a-	.	.	.	.	.	.	8b-	.	8dd-	.	8dd-	.	.
.	.	16AA-L 16E- 16A- 16c 16e- 16a-	.	8D-	.	.	.	.	[8a-J	.	[8ccJ	.	[8ccJ	.	.
.	.	16AA-JJ 16E- 16A- 16c 16e- 16a-	.	.	.	.	.	.	.	.	.	.	.	.	.
4AA-	.	8AA-L 8E- 8A- 8c 8e- 8a-	.	8CL	.	.	.	.	8a-L]	.	8ccL]	.	8ccL]	.	.
.	.	16AA-L 16E- 16A- 16c 16e- 16a-	.	8D-	.	.	.	.	8b-J	.	8dd-J	.	8dd-J	.	.
.	.	16AA-JJ 16E- 16A- 16c 16e- 16a-	.	.	.	.	.	.	.	.	.	.	.	.	.
4GG-	.	8AA-L 8E- 8A- 8c 8e- 8a-	.	8B-	.	.	8e-L]	.	4cc	.	4ee-	.	4ee-	.	.
.	.	16AA-L 16E- 16A- 16c 16e- 16a-	.	8cJ	.	.	8cJ	.	.	.	.	.	.	.	.
.	.	16AA-JJ 16E- 16A- 16c 16e- 16a-	.	.	.	.	.	.	.	.	.	.	.	.	.
=48	=48	=48	=48	=48	=48	=48	=48	=48	=48	=48	=48	=48	=48	=48	=48
2FF	.	8FFL 8C 8F 8A- 8c 8f	.	4c	.	.	4e-	.	8r	.	8r	.	8r	.	.
.	.	16FFL 16C 16F 16A- 16c 16f	.	.	.	.	.	.	8ccL	.	8ee-L	.	8ee-L	.	.
.	.	16FFJJ 16C 16F 16A- 16c 16f	.	.	.	.	.	.	.	.	.	.	.	.	.
.	.	8FFL 8C 8F 8A- 8c 8f	.	4B-	.	.	4d-	.	8cc	.	8ee-	.	8ee-	.	.
.	.	16FFL 16C 16F 16A- 16c 16f	.	.	.	.	.	.	8ccJ	.	8ee-J	.	8ee-J	.	.
.	.	16FFJJ 16C 16F 16A- 16c 16f	.	.	.	.	.	.	.	.	.	.	.	.	.
2FF	.	8FFL 8C 8F 8A- 8c 8f	.	4A-	.	.	4c	.	4.cc	.	4.ee-	.	4.ee-	.	.
.	.	16FFL 16C 16F 16A- 16c 16f	.	.	.	.	.	.	.	.	.	.	.	.	.
.	.	16FFJJ 16C 16F 16A- 16c 16f	.	.	.	.	.	.	.	.	.	.	.	.	.
.	.	8FFL 8C 8F 8A- 8c 8f	.	4F	.	.	4A-	.	.	.	.	.	.	.	.
.	.	16FFL 16C 16F 16A- 16c 16f	.	.	.	.	.	.	8cc	.	8ee-	.	8ee-	.	.
.	.	16FFJJ 16C 16F 16A- 16c 16f	.	.	.	.	.	.	.	.	.	.	.	.	.
=49	=49	=49	=49	=49	=49	=49	=49	=49	=49	=49	=49	=49	=49	=49	=49
2BBB-	.	8BB-L 8F 8B- 8d- 8f	.	[2F	.	.	2.d-	.	8ccL	.	8ee-L	.	8ee-L	.	.
.	.	16BB-L 16F 16B- 16d- 16f	.	.	.	.	.	.	8b-	.	8dd-	.	8dd-	.	.
.	.	16BB-JJ 16F 16B- 16d- 16f	.	.	.	.	.	.	.	.	.	.	.	.	.
.	.	8BB-L 8F 8B- 8d- 8f	.	.	.	.	.	.	8a-	.	8cc	.	8cc	.	.
.	.	16BB-L 16F 16B- 16d- 16f	.	.	.	.	.	.	8b-J	.	8dd-J	.	8dd-J	.	.
.	.	16BB-JJ 16F 16B- 16d- 16f	.	.	.	.	.	.	.	.	.	.	.	.	.
2AAA-	.	8BB-L 8F 8B- 8d- 8f	.	8FL]	.	.	.	.	8r	.	8r	.	8r	.	.
.	.	16BB-L 16F 16B- 16d- 16f	.	[8A-J	.	.	.	.	[8a-	.	[8cc	.	[8cc	.	.
.	.	16BB-JJ 16F 16B- 16d- 16f	.	.	.	.	.	.	.	.	.	.	.	.	.
.	.	8BB-L 8F 8B- 8d- 8f	.	16A-KL]	.	.	8cL	.	16a-KL]	.	16ccKL]	.	16ccKL]	.	.
.	.	.	.	8.FJ	.	.	.	.	8.fJ	.	8.a-J	.	8.a-J	.	.
.	.	16BB-L 16F 16B- 16d- 16f	.	.	.	.	8A-J	.	.	.	.	.	.	.	.
.	.	16BB-JJ 16F 16B- 16d- 16f	.	.	.	.	.	.	.	.	.	.	.	.	.
=50	=50	=50	=50	=50	=50	=50	=50	=50	=50	=50	=50	=50	=50	=50	=50
2.EE-	.	8E-L 8B- 8e- 8g-	.	4.G-	.	.	2.B-	.	4e-	.	4g-	.	4g-	.	.
.	.	16E-L 16B- 16e- 16g-	.	.	.	.	.	.	.	.	.	.	.	.	.
.	.	16E-JJ 16B- 16e- 16g-	.	.	.	.	.	.	.	.	.	.	.	.	.
.	.	8E-L 8B- 8e- 8g-	.	.	.	.	.	.	4f	.	4a-	.	4a-	.	.
.	.	16E-L 16B- 16e- 16g-	.	[8G-	.	.	.	.	.	.	.	.	.	.	.
.	.	16E-JJ 16B- 16e- 16g-	.	.	.	.	.	.	.	.	.	.	.	.	.
.	.	8E-L 8B- 8e- 8g-	.	4G-]	.	.	.	.	4g-	.	4b-	.	4b-	.	.
.	.	16E-L 16B- 16e- 16g-	.	.	.	.	.	.	.	.	.	.	.	.	.
.	.	16E-JJ 16B- 16e- 16g-	.	.	.	.	.	.	.	.	.	.	.	.	.
4EE-	.	8E-L 8B- 8e- 8g-	.	8E-L	.	.	8G-L	.	8e-L	.	8g-L	.	8g-L	.	.
.	.	16E-L 16B- 16e- 16g-	.	8FJ	.	.	8A-J	.	8cJ	.	8e-J	.	8e-J	.	.
.	.	16E-JJ 16B- 16e- 16g-	.	.	.	.	.	.	.	.	.	.	.	.	.
=51	=51	=51	=51	=51	=51	=51	=51	=51	=51	=51	=51	=51	=51	=51	=51
4.AA-	.	8AA-L 8E- 8A- 8c 8e- 8a-	.	4G-	.	.	4B-	.	4c	.	4e-	.	4e-	.	.
.	.	16AA-L 16E- 16A- 16c 16e- 16a-	.	.	.	.	.	.	.	.	.	.	.	.	.
.	.	16AA-JJ 16E- 16A- 16c 16e- 16a-	.	.	.	.	.	.	.	.	.	.	.	.	.
.	.	8AA-L 8E- 8A- 8c 8e- 8a-	.	4A-	.	.	4c	.	[4cc	.	[4ee-	.	[4ee-	.	.
[8AA-	.	16AA-L 16E- 16A- 16c 16e- 16a-	.	.	.	.	.	.	.	.	.	.	.	.	.
.	.	16AA-JJ 16E- 16A- 16c 16e- 16a-	.	.	.	.	.	.	.	.	.	.	.	.	.
2AA-]	.	8AA-L 8E- 8A- 8c 8e- 8a-	.	4B-	.	.	4d-	.	8cc]	.	8ee-]	.	8ee-]	.	.
.	.	16AA-L 16E- 16A- 16c 16e- 16a-	.	.	.	.	.	.	8r	.	8r	.	8r	.	.
.	.	16AA-JJ 16E- 16A- 16c 16e- 16a-	.	.	.	.	.	.	.	.	.	.	.	.	.
.	.	8AA-L 8E- 8A- 8c 8e- 8a-	.	4c	.	.	4e-	.	4r	.	4r	.	4r	.	.
.	.	16AA-L 16E- 16A- 16c 16e- 16a-	.	.	.	.	.	.	.	.	.	.	.	.	.
.	.	16AA-JJ 16E- 16A- 16c 16e- 16a-	.	.	.	.	.	.	.	.	.	.	.	.	.
=52	=52	=52	=52	=52	=52	=52	=52	=52	=52	=52	=52	=52	=52	=52	=52
1FF	.	8FFL 8C 8F 8A- 8c 8f	.	[2.A-	.	.	[2.c	.	4a-	.	4cc	.	4cc	.	.
.	.	16FFL 16C 16F 16A- 16c 16f	.	.	.	.	.	.	.	.	.	.	.	.	.
.	.	16FFJJ 16C 16F 16A- 16c 16f	.	.	.	.	.	.	.	.	.	.	.	.	.
.	.	8FFL 8C 8F 8A- 8c 8f	.	.	.	.	.	.	4b-	.	4dd-	.	4dd-	.	.
.	.	16FFL 16C 16F 16A- 16c 16f	.	.	.	.	.	.	.	.	.	.	.	.	.
.	.	16FFJJ 16C 16F 16A- 16c 16f	.	.	.	.	.	.	.	.	.	.	.	.	.
.	.	8FFL 8C 8F 8A- 8c 8f	.	.	.	.	.	.	4cc	.	4ee-	.	4ee-	.	.
.	.	16FFL 16C 16F 16A- 16c 16f	.	.	.	.	.	.	.	.	.	.	.	.	.
.	.	16FFJJ 16C 16F 16A- 16c 16f	.	.	.	.	.	.	.	.	.	.	.	.	.
.	.	8FFL 8C 8F 8A- 8c 8f	.	8A-L]	.	.	8cL]	.	8a-L	.	8ccL	.	8ccL	.	.
.	.	16FFL 16C 16F 16A- 16c 16f	.	8FJ	.	.	8A-J	.	8fJ	.	8a-J	.	8a-J	.	.
.	.	16FFJJ 16C 16F 16A- 16c 16f	.	.	.	.	.	.	.	.	.	.	.	.	.
=53	=53	=53	=53	=53	=53	=53	=53	=53	=53	=53	=53	=53	=53	=53	=53
2BBB-	.	8BB-L 8F 8B- 8d- 8f	.	4B-	.	.	4d-	.	4f	.	4a-	.	4a-	.	.
.	.	16BB-L 16F 16B- 16d- 16f	.	.	.	.	.	.	.	.	.	.	.	.	.
.	.	16BB-JJ 16F 16B- 16d- 16f	.	.	.	.	.	.	.	.	.	.	.	.	.
.	.	8BB-L 8F 8B- 8d- 8f	.	8cL	.	.	8e-L	.	4b-	.	4dd-	.	4dd-	.	.
.	.	16BB-L 16F 16B- 16d- 16f	.	[8d-J	.	.	[8fJ	.	.	.	.	.	.	.	.
.	.	16BB-JJ 16F 16B- 16d- 16f	.	.	.	.	.	.	.	.	.	.	.	.	.
2AAA-	.	8BB-L 8F 8B- 8d- 8f	.	8d-]	.	.	8f]	.	8r	.	8dd-L	.	8dd-L	.	.
.	.	16BB-L 16F 16B- 16d- 16f	.	4.d-	.	.	4.f	.	4.aa-	.	8cc	.	8cc	.	.
.	.	16BB-JJ 16F 16B- 16d- 16f	.	.	.	.	.	.	.	.	.	.	.	.	.
.	.	8BB-L 8F 8B- 8d- 8f	.	.	.	.	.	.	.	.	8dd-	.	8dd-	.	.
.	.	16BB-L 16F 16B- 16d- 16f	.	.	.	.	.	.	.	.	8ee-J	.	8ee-J	.	.
.	.	16BB-JJ 16F 16B- 16d- 16f	.	.	.	.	.	.	.	.	.	.	.	.	.
=54	=54	=54	=54	=54	=54	=54	=54	=54	=54	=54	=54	=54	=54	=54	=54
2EE-	.	8E-L 8B- 8e- 8g-	.	4.G-	.	.	2e-	.	2gg-	.	4ff	.	4ff	.	.
.	.	16E-L 16B- 16e- 16g-	.	.	.	.	.	.	.	.	.	.	.	.	.
.	.	16E-JJ 16B- 16e- 16g-	.	.	.	.	.	.	.	.	.	.	.	.	.
.	.	8E-L 8B- 8e- 8g-	.	.	.	.	.	.	.	.	8gg-L	.	8gg-L	.	.
.	.	16E-L 16B- 16e- 16g-	.	[8G-	.	.	.	.	.	.	[8b-J	.	[8b-J	.	.
.	.	16E-JJ 16B- 16e- 16g-	.	.	.	.	.	.	.	.	.	.	.	.	.
2EE-	.	8E-L 8B- 8e- 8g-	.	4G-]	.	.	2e-	.	2ff	.	4b-]	.	4b-]	.	.
.	.	16E-L 16B- 16e- 16g-	.	.	.	.	.	.	.	.	.	.	.	.	.
.	.	16E-JJ 16B- 16e- 16g-	.	.	.	.	.	.	.	.	.	.	.	.	.
.	.	8E-L 8B- 8e- 8g-	.	4G-	.	.	.	.	.	.	8dd-L	.	8dd-L	.	.
.	.	16E-L 16B- 16e- 16g-	.	.	.	.	.	.	.	.	[8ffJ	.	[8ffJ	.	.
.	.	16E-JJ 16B- 16e- 16g-	.	.	.	.	.	.	.	.	.	.	.	.	.
=55	=55	=55	=55	=55	=55	=55	=55	=55	=55	=55	=55	=55	=55	=55	=55
2AA-	.	8E-L 8B- 8e- 8g-	.	2A-	.	.	2B-	.	2ee-	.	4ff]	.	4ff]	.	.
.	.	16E-L 16B- 16e- 16g-	.	.	.	.	.	.	.	.	.	.	.	.	.
.	.	16E-JJ 16B- 16e- 16g-	.	.	.	.	.	.	.	.	.	.	.	.	.
.	.	8E-L 8B- 8e- 8g-	.	.	.	.	.	.	.	.	8gg-L	.	8gg-L	.	.
.	.	16E-L 16B- 16e- 16g-	.	.	.	.	.	.	.	.	[8ee-J	.	[8ee-J	.	.
.	.	16E-JJ 16B- 16e- 16g-	.	.	.	.	.	.	.	.	.	.	.	.	.
2FF	.	8FFL 8C 8F 8An 8c 8f	.	8AnL	.	.	8cL	.	8ccL	.	4ee-]	.	4ee-]	.	.
.	.	16FFL 16C 16F 16A 16c 16f	.	8B-	.	.	8d-	.	8dd-	.	.	.	.	.	.
.	.	16FFJJ 16C 16F 16A 16c 16f	.	.	.	.	.	.	.	.	.	.	.	.	.
.	.	8FFL 8C 8F 8A 8c 8f	.	8c	.	.	8e-	.	8ee-	.	4r	.	4r	.	.
.	.	16FFL 16C 16F 16A 16c 16f	.	[8G-J	.	.	[8d-J	.	8ffJ	.	.	.	.	.	.
.	.	16FFJJ 16C 16F 16A 16c 16f	.	.	.	.	.	.	.	.	.	.	.	.	.
=56||	=56||	=56||	=56||	=56||	=56||	=56||	=56||	=56||	=56||	=56||	=56||	=56||	=56||	=56||	=56||
1GG-	.	8GG-L 8D- 8G- 8B- 8d- 8g-	.	4G-]	.	.	2.d-]	.	8r	.	8r	.	8r	.	.
.	.	16GG-L 16D- 16G- 16B- 16d- 16g-	.	.	.	.	.	.	8dd-	.	8ff	.	8ff	.	.
.	.	16GG-JJ 16D- 16G- 16B- 16d- 16g-	.	.	.	.	.	.	.	.	.	.	.	.	.
.	.	8GG-L 8D- 8G- 8B- 8d- 8g-	.	4G-	.	.	.	.	8dd-L	.	8ffL	.	8ffL	.	.
.	.	16GG-L 16D- 16G- 16B- 16d- 16g-	.	.	.	.	.	.	16dd-L	.	16ffL	.	16ffL	.	.
.	.	16GG-JJ 16D- 16G- 16B- 16d- 16g-	.	.	.	.	.	.	16dd-JJ	.	16ffJJ	.	16ffJJ	.	.
.	.	8GG-L 8D- 8G- 8B- 8d- 8g-	.	8r	.	.	.	.	4.dd-	.	4.ff	.	4.ff	.	.
.	.	16GG-L 16D- 16G- 16B- 16d- 16g-	.	[8G-	.	.	.	.	.	.	.	.	.	.	.
.	.	16GG-JJ 16D- 16G- 16B- 16d- 16g-	.	.	.	.	.	.	.	.	.	.	.	.	.
.	.	8GG-L 8D- 8G- 8B- 8d- 8g-	.	4G-]	.	.	4b-	.	.	.	.	.	.	.	.
.	.	16GG-L 16D- 16G- 16B- 16d- 16g-	.	.	.	.	.	.	8dd-	.	8ff	.	8ff	.	.
.	.	16GG-JJ 16D- 16G- 16B- 16d- 16g-	.	.	.	.	.	.	.	.	.	.	.	.	.
=57	=57	=57	=57	=57	=57	=57	=57	=57	=57	=57	=57	=57	=57	=57	=57
2GG-	.	8AA-L 8E- 8A- 8c 8e- 8a-	.	4.A-	.	.	2.e-	.	8dd-L	.	8ffL	.	8ffL	.	.
.	.	16AA-L 16E- 16A- 16c 16e- 16a-	.	.	.	.	.	.	8cc	.	8ee-	.	8ee-	.	.
.	.	16AA-JJ 16E- 16A- 16c 16e- 16a-	.	.	.	.	.	.	.	.	.	.	.	.	.
.	.	8AA-L 8E- 8A- 8c 8e- 8a-	.	.	.	.	.	.	8b-	.	8dd-	.	8dd-	.	.
.	.	16AA-L 16E- 16A- 16c 16e- 16a-	.	8E-	.	.	.	.	[8a-J	.	[8ccJ	.	[8ccJ	.	.
.	.	16AA-JJ 16E- 16A- 16c 16e- 16a-	.	.	.	.	.	.	.	.	.	.	.	.	.
2GG-	.	8AA-L 8E- 8A- 8c 8e- 8a-	.	8e-L	.	.	.	.	8a-L]	.	8ccL]	.	8ccL]	.	.
.	.	16AA-L 16E- 16A- 16c 16e- 16a-	.	8cJ	.	.	.	.	8b-J	.	8dd-J	.	8dd-J	.	.
.	.	16AA-JJ 16E- 16A- 16c 16e- 16a-	.	.	.	.	.	.	.	.	.	.	.	.	.
.	.	8AA-L 8E- 8A- 8c 8e- 8a-	.	4G-	.	.	4c	.	4cc	.	4ee-	.	4ee-	.	.
.	.	16AA-L 16E- 16A- 16c 16e- 16a-	.	.	.	.	.	.	.	.	.	.	.	.	.
.	.	16AA-JJ 16E- 16A- 16c 16e- 16a-	.	.	.	.	.	.	.	.	.	.	.	.	.
=58	=58	=58	=58	=58	=58	=58	=58	=58	=58	=58	=58	=58	=58	=58	=58
2FF	.	8FFL 8C 8F 8A- 8c 8f	.	4c	.	.	4a-	.	8r	.	8r	.	8r	.	.
.	.	16FFL 16C 16F 16A- 16c 16f	.	.	.	.	.	.	16ccLL	.	16ee-LL	.	16ee-LL	.	.
.	.	16FFJJ 16C 16F 16A- 16c 16f	.	.	.	.	.	.	16ccJJ	.	16ee-JJ	.	16ee-JJ	.	.
.	.	8FFL 8C 8F 8A- 8c 8f	.	4B-	.	.	4g-	.	16ccLL	.	16ee-LL	.	16ee-LL	.	.
.	.	.	.	.	.	.	.	.	16cc	.	16ee-	.	16ee-	.	.
.	.	16FFL 16C 16F 16A- 16c 16f	.	.	.	.	.	.	16cc	.	16ee-	.	16ee-	.	.
.	.	16FFJJ 16C 16F 16A- 16c 16f	.	.	.	.	.	.	16ccJJ	.	16ee-JJ	.	16ee-JJ	.	.
2FF	.	8FFL 8C 8F 8A- 8c 8f	.	4A-	.	.	4f	.	4.cc	.	4.ee-	.	4.ee-	.	.
.	.	16FFL 16C 16F 16A- 16c 16f	.	.	.	.	.	.	.	.	.	.	.	.	.
.	.	16FFJJ 16C 16F 16A- 16c 16f	.	.	.	.	.	.	.	.	.	.	.	.	.
.	.	8FFL 8C 8F 8A- 8c 8f	.	4F	.	.	4e-	.	.	.	.	.	.	.	.
.	.	16FFL 16C 16F 16A- 16c 16f	.	.	.	.	.	.	16ccLL	.	16ee-LL	.	16ee-LL	.	.
.	.	16FFJJ 16C 16F 16A- 16c 16f	.	.	.	.	.	.	16ccJJ	.	16ee-JJ	.	16ee-JJ	.	.
=59	=59	=59	=59	=59	=59	=59	=59	=59	=59	=59	=59	=59	=59	=59	=59
2BB-	.	8BB-L 8F 8B- 8d- 8f	.	2F	.	.	[2d-	.	8ccL	.	8ee-L	.	8ee-L	.	.
.	.	16BB-L 16F 16B- 16d- 16f	.	.	.	.	.	.	8b-	.	8dd-	.	8dd-	.	.
.	.	16BB-JJ 16F 16B- 16d- 16f	.	.	.	.	.	.	.	.	.	.	.	.	.
.	.	8BB-L 8F 8B- 8d- 8f	.	.	.	.	.	.	8a-	.	8cc	.	8cc	.	.
.	.	16BB-L 16F 16B- 16d- 16f	.	.	.	.	.	.	8b-J	.	8dd-J	.	8dd-J	.	.
.	.	16BB-JJ 16F 16B- 16d- 16f	.	.	.	.	.	.	.	.	.	.	.	.	.
2AA-	.	8BB-L 8F 8B- 8d- 8f	.	4B-	.	.	8d-L]	.	8r	.	8r	.	8r	.	.
.	.	16BB-L 16F 16B- 16d- 16f	.	.	.	.	[8cJ	.	[8a-	.	[8cc	.	[8cc	.	.
.	.	16BB-JJ 16F 16B- 16d- 16f	.	.	.	.	.	.	.	.	.	.	.	.	.
.	.	8BB-L 8F 8B- 8d- 8f	.	4F	.	.	16cKL]	.	16a-KL]	.	16ccKL]	.	16ccKL]	.	.
.	.	.	.	.	.	.	8.A-J	.	8.fJ	.	8.a-J	.	8.a-J	.	.
.	.	16BB-L 16F 16B- 16d- 16f	.	.	.	.	.	.	.	.	.	.	.	.	.
.	.	16BB-JJ 16F 16B- 16d- 16f	.	.	.	.	.	.	.	.	.	.	.	.	.
=60	=60	=60	=60	=60	=60	=60	=60	=60	=60	=60	=60	=60	=60	=60	=60
2.EE-	.	8E-L 8B- 8e- 8g-	.	4.G-	.	.	2.B-	.	8.e-L	.	8.g-L	.	8.g-L	.	.
.	.	16E-L 16B- 16e- 16g-	.	.	.	.	.	.	.	.	.	.	.	.	.
.	.	16E-JJ 16B- 16e- 16g-	.	.	.	.	.	.	16e-Jk	.	16g-Jk	.	16g-Jk	.	.
.	.	8E-L 8B- 8e- 8g-	.	.	.	.	.	.	4f	.	4a-	.	4a-	.	.
.	.	16E-L 16B- 16e- 16g-	.	[8G-	.	.	.	.	.	.	.	.	.	.	.
.	.	16E-JJ 16B- 16e- 16g-	.	.	.	.	.	.	.	.	.	.	.	.	.
.	.	8E-L 8B- 8e- 8g-	.	4G-]	.	.	.	.	8.g-L	.	8.b-L	.	8.b-L	.	.
.	.	16E-L 16B- 16e- 16g-	.	.	.	.	.	.	.	.	.	.	.	.	.
.	.	16E-JJ 16B- 16e- 16g-	.	.	.	.	.	.	16g-Jk	.	16b-Jk	.	16b-Jk	.	.
4EE-	.	8E-L 8B- 8e- 8g-	.	8E-L	.	.	8G-L	.	8.e-L	.	8.g-L	.	8.g-L	.	.
.	.	16E-L 16B- 16e- 16g-	.	8FJ	.	.	8A-J	.	.	.	.	.	.	.	.
.	.	16E-JJ 16B- 16e- 16g-	.	.	.	.	.	.	16cJk	.	16e-Jk	.	16e-Jk	.	.
=61	=61	=61	=61	=61	=61	=61	=61	=61	=61	=61	=61	=61	=61	=61	=61
4.AA-	.	8AA-L 8E- 8A- 8c 8e- 8a-	.	4G-	.	.	4B-	.	8.cL	.	8.e-L	.	8.e-L	.	.
.	.	16AA-L 16E- 16A- 16c 16e- 16a-	.	.	.	.	.	.	.	.	.	.	.	.	.
.	.	16AA-JJ 16E- 16A- 16c 16e- 16a-	.	.	.	.	.	.	16cJk	.	16e-Jk	.	16e-Jk	.	.
.	.	8AA-L 8E- 8A- 8c 8e- 8a-	.	4A-	.	.	4c	.	2cc	.	2ee-	.	2ee-	.	.
8AA-	.	16AA-L 16E- 16A- 16c 16e- 16a-	.	.	.	.	.	.	.	.	.	.	.	.	.
.	.	16AA-JJ 16E- 16A- 16c 16e- 16a-	.	.	.	.	.	.	.	.	.	.	.	.	.
2GG-	.	8AA-L 8E- 8A- 8c 8e- 8a-	.	4B-	.	.	4d-	.	.	.	.	.	.	.	.
.	.	16AA-L 16E- 16A- 16c 16e- 16a-	.	.	.	.	.	.	.	.	.	.	.	.	.
.	.	16AA-JJ 16E- 16A- 16c 16e- 16a-	.	.	.	.	.	.	.	.	.	.	.	.	.
.	.	8AA-L 8E- 8A- 8c 8e- 8a-	.	4c	.	.	4e-	.	8r	.	8r	.	8r	.	.
.	.	16AA-L 16E- 16A- 16c 16e- 16a-	.	.	.	.	.	.	8b-	.	8dd-	.	8dd-	.	.
.	.	16AA-JJ 16E- 16A- 16c 16e- 16a-	.	.	.	.	.	.	.	.	.	.	.	.	.
=62	=62	=62	=62	=62	=62	=62	=62	=62	=62	=62	=62	=62	=62	=62	=62
2FF	.	8FFL 8C 8F 8A- 8c 8f	.	8A-L	.	.	2f	.	8.a-L	.	8.ccL	.	8.ccL	.	.
.	.	16FFL 16C 16F 16A- 16c 16f	.	8F	.	.	.	.	.	.	.	.	.	.	.
.	.	16FFJJ 16C 16F 16A- 16c 16f	.	.	.	.	.	.	16a-Jk	.	16ccJk	.	16ccJk	.	.
.	.	8FFL 8C 8F 8A- 8c 8f	.	8A-	.	.	.	.	8.b-L	.	8.dd-L	.	8.dd-L	.	.
.	.	16FFL 16C 16F 16A- 16c 16f	.	8cJ	.	.	.	.	.	.	.	.	.	.	.
.	.	16FFJJ 16C 16F 16A- 16c 16f	.	.	.	.	.	.	16b-Jk	.	16dd-Jk	.	16dd-Jk	.	.
2AAn	.	8FFL 8C 8F 8An 8c 8f	.	4e-	.	.	2f	.	4cc	.	4ee-	.	4ee-	.	.
.	.	16FFL 16C 16F 16A 16c 16f	.	.	.	.	.	.	.	.	.	.	.	.	.
.	.	16FFJJ 16C 16F 16A 16c 16f	.	.	.	.	.	.	.	.	.	.	.	.	.
.	.	8FFL 8C 8F 8A 8c 8f	.	4c	.	.	.	.	8.anL	.	8.ccL	.	8.ccL	.	.
.	.	16FFL 16C 16F 16A 16c 16f	.	.	.	.	.	.	.	.	.	.	.	.	.
.	.	16FFJJ 16C 16F 16A 16c 16f	.	.	.	.	.	.	16fJk	.	16a-Jk	.	16a-Jk	.	.
=63	=63	=63	=63	=63	=63	=63	=63	=63	=63	=63	=63	=63	=63	=63	=63
2BB-	.	8BB-L 8F 8B- 8d- 8f	.	4B-	.	.	4d-	.	4f	.	4a-	.	4a-	.	.
.	.	16BB-L 16F 16B- 16d- 16f	.	.	.	.	.	.	.	.	.	.	.	.	.
.	.	16BB-JJ 16F 16B- 16d- 16f	.	.	.	.	.	.	.	.	.	.	.	.	.
.	.	8BB-L 8F 8B- 8d- 8f	.	8cL	.	.	8e-L	.	4b-	.	4dd-	.	4dd-	.	.
.	.	16BB-L 16F 16B- 16d- 16f	.	[8d-J	.	.	[8fJ	.	.	.	.	.	.	.	.
.	.	16BB-JJ 16F 16B- 16d- 16f	.	.	.	.	.	.	.	.	.	.	.	.	.
2AA-	.	8BB-L 8F 8B- 8d- 8f	.	8d-]	.	.	8f]	.	8d-L	.	8dd-L	.	8dd-L	.	.
.	.	16BB-L 16F 16B- 16d- 16f	.	4.f	.	.	4.a-	.	8c	.	8cc	.	8cc	.	.
.	.	16BB-JJ 16F 16B- 16d- 16f	.	.	.	.	.	.	.	.	.	.	.	.	.
.	.	8BB-L 8F 8B- 8d- 8f	.	.	.	.	.	.	8d-	.	8dd-	.	8dd-	.	.
.	.	16BB-L 16F 16B- 16d- 16f	.	.	.	.	.	.	8e-J	.	8ee-J	.	8ee-J	.	.
.	.	16BB-JJ 16F 16B- 16d- 16f	.	.	.	.	.	.	.	.	.	.	.	.	.
=64	=64	=64	=64	=64	=64	=64	=64	=64	=64	=64	=64	=64	=64	=64	=64
1EE-	.	8E-L 8B- 8e- 8g-	.	4.e-	.	.	2g-	.	4f	.	4ff	.	4ff	.	.
.	.	16E-L 16B- 16e- 16g-	.	.	.	.	.	.	.	.	.	.	.	.	.
.	.	16E-JJ 16B- 16e- 16g-	.	.	.	.	.	.	.	.	.	.	.	.	.
.	.	8E-L 8B- 8e- 8g-	.	.	.	.	.	.	8g-L	.	8gg-L	.	8gg-L	.	.
.	.	16E-L 16B- 16e- 16g-	.	[8G-	.	.	.	.	[8B-J	.	[8b-J	.	[8b-J	.	.
.	.	16E-JJ 16B- 16e- 16g-	.	.	.	.	.	.	.	.	.	.	.	.	.
.	.	8E-L 8B- 8e- 8g-	.	4G-]	.	.	2f	.	4B-]	.	4b-]	.	4b-]	.	.
.	.	16E-L 16B- 16e- 16g-	.	.	.	.	.	.	.	.	.	.	.	.	.
.	.	16E-JJ 16B- 16e- 16g-	.	.	.	.	.	.	.	.	.	.	.	.	.
.	.	8E-L 8B- 8e- 8g-	.	4E-	.	.	.	.	8d-L	.	8dd-L	.	8dd-L	.	.
.	.	16E-L 16B- 16e- 16g-	.	.	.	.	.	.	[8fJ	.	[8ffJ	.	[8ffJ	.	.
.	.	16E-JJ 16B- 16e- 16g-	.	.	.	.	.	.	.	.	.	.	.	.	.
=65	=65	=65	=65	=65	=65	=65	=65	=65	=65	=65	=65	=65	=65	=65	=65
1AAA-	.	8AA-L 8E- 8A- 8c 8e- 8a-	.	4.A-	.	.	1e-	.	4f]	.	4ff]	.	4ff]	.	.
.	.	16AA-L 16E- 16A- 16c 16e- 16a-	.	.	.	.	.	.	.	.	.	.	.	.	.
.	.	16AA-JJ 16E- 16A- 16c 16e- 16a-	.	.	.	.	.	.	.	.	.	.	.	.	.
.	.	8AA-L 8E- 8A- 8c 8e- 8a-	.	.	.	.	.	.	16g-LL	.	16gg-LL	.	16gg-LL	.	.
.	.	.	.	.	.	.	.	.	16g-J	.	16gg-J	.	16gg-J	.	.
.	.	16AA-L 16E- 16A- 16c 16e- 16a-	.	8AA-	.	.	.	.	[8e-J	.	[8ee-J	.	[8ee-J	.	.
.	.	16AA-JJ 16E- 16A- 16c 16e- 16a-	.	.	.	.	.	.	.	.	.	.	.	.	.
.	.	8AA-L 8E- 8A- 8c 8e- 8a-	.	8GG-L	.	.	.	.	8e-L]	.	8ee-L]	.	8ee-L]	.	.
.	.	16AA-L 16E- 16A- 16c 16e- 16a-	.	8AA-J	.	.	.	.	8d-	.	8dd-	.	8dd-	.	.
.	.	16AA-JJ 16E- 16A- 16c 16e- 16a-	.	.	.	.	.	.	.	.	.	.	.	.	.
.	.	8AA-L 8E- 8A- 8c 8e- 8a-	.	4D-	.	.	.	.	8d-	.	8dd-	.	8dd-	.	.
.	.	16AA-L 16E- 16A- 16c 16e- 16a-	.	.	.	.	.	.	[8d-J	.	8dd-J	.	8dd-J	.	.
.	.	16AA-JJ 16E- 16A- 16c 16e- 16a-	.	.	.	.	.	.	.	.	.	.	.	.	.
=66||	=66||	=66||	=66||	=66||	=66||	=66||	=66||	=66||	=66||	=66||	=66||	=66||	=66||	=66||	=66||
1GG-	>	4GG- 4BB- 4D- 4G- 4B- 4g-	>	8GG-L	>	.	8cL	>	1d-]	.	2dd-	.	2dd-	.	.
.	.	.	.	8D-J	.	.	8d-J	.	.	.	.	.	.	.	.
.	.	8GG-L 8BB- 8D- 8G- 8B- 8g-	.	4F	.	.	4f	.	.	.	.	.	.	.	.
.	.	8GG-J 8BB- 8D- 8G- 8B- 8g-	.	.	.	.	.	.	.	.	.	.	.	.	.
.	.	8GG-L 8BB- 8D- 8G- 8B- 8g-	.	8D-L	.	.	8cL	.	.	.	2r	.	8r	.	.
.	.	8GG- 8BB- 8D- 8G- 8B- 8g-	.	8F	.	.	8d-	.	.	.	.	.	8r	.	.
.	.	8GG- 8BB- 8D- 8G- 8B- 8g-	.	8A-	.	.	8f	.	.	.	.	.	4r	.	.
.	.	8GG-J 8BB- 8D- 8G- 8B- 8g-	.	[8FJ	.	.	8a-J	.	.	.	.	.	.	.	.
=67	=67	=67	=67	=67	=67	=67	=67	=67	=67	=67	=67	=67	=67	=67	=67
1GG-	]]	4GG- 4BB- 4D- 4G- 4B- 4g-	.	8FL]	.	.	8d-L	.	1dd-	mp	1ff	mp	8r	.	.
.	.	.	.	8D-	.	.	8f	.	.	.	.	.	8r	.	.
.	.	8GG-L 8BB- 8D- 8G- 8B- 8g-	.	8F	.	.	8a-	.	.	.	.	.	4r	.	.
.	.	[8GG-J [8BB- [8D- [8G- [8B- [8g-	.	[8A-J	.	.	8ccJ	.	.	.	.	.	.	.	.
.	.	4GG-] 4BB-] 4D-] 4G-] 4B-] 4g-]	.	4A-]	.	.	8a-L	.	.	.	.	.	4r	.	.
.	.	.	.	.	.	.	8f	.	.	.	.	.	.	.	.
.	.	8r	.	4AA-	]]	.	8d-	.	.	.	.	.	8r	.	.
.	.	8D-	mf ]]	.	.	.	8fJ	]]	.	.	.	.	8d-	mf	.
=68||	=68||	=68||	=68||	=68||	=68||	=68||	=68||	=68||	=68||	=68||	=68||	=68||	=68||	=68||	=68||
1r	.	8A-L	.	2D-	p	.	[2.d-	mp	1r	.	1r	.	8a-L	.	.
.	.	8A-	.	.	.	.	.	.	.	.	.	.	8a-	.	.
.	.	8A-	.	.	.	.	.	.	.	.	.	.	8a-	.	.
.	.	[8A-J	.	.	.	.	.	.	.	.	.	.	[8a-J	.	.
.	.	8A-L]	.	2D-	.	.	.	.	.	.	.	.	8a-L]	.	.
.	.	8F	.	.	.	.	.	.	.	.	.	.	8f	.	.
.	.	8A-	.	.	.	.	8d-L]	.	.	.	.	.	8a-	.	.
.	.	[8B-J	.	.	.	.	8d-J	.	.	.	.	.	[8b-J	.	.
=69	=69	=69	=69	=69	=69	=69	=69	=69	=69	=69	=69	=69	=69	=69	=69
1r	.	8B-L]	.	2C	.	.	4e-	.	1r	.	1r	.	8b-L]	.	.
.	.	8F	.	.	.	.	.	.	.	.	.	.	8f	.	.
.	.	8F	.	.	.	.	8cL	.	.	.	.	.	8f	.	.
.	.	[8A-J	.	.	.	.	[8d-J	.	.	.	.	.	[8a-J	.	.
.	.	4A-]	.	2C	.	.	8d-L]	.	.	.	.	.	4a-]	.	.
.	.	.	.	.	.	.	8cJ	.	.	.	.	.	.	.	.
.	.	8r	.	.	.	.	4A-	.	.	.	.	.	8r	.	.
.	.	8F	.	.	.	.	.	.	.	.	.	.	8f	.	.
=70	=70	=70	=70	=70	=70	=70	=70	=70	=70	=70	=70	=70	=70	=70	=70
1r	.	8d-L	.	2BB-	.	.	4B-	.	1r	.	1r	.	8dd-L	.	.
.	.	8c	.	.	.	.	.	.	.	.	.	.	8cc	.	.
.	.	8B-	.	.	.	.	8FL	.	.	.	.	.	8b-	.	.
.	.	[8A-J	.	.	.	.	[8B-J	.	.	.	.	.	[8a-J	.	.
.	.	8A-L]	.	2FF	.	.	4B-]	.	.	.	.	.	8a-L]	.	.
.	.	8G-	.	.	.	.	.	.	.	.	.	.	8g-	.	.
.	.	8F	.	.	.	.	8A-L	.	.	.	.	.	8f	.	.
.	.	[8G-J	.	.	.	.	[8B-J	.	.	.	.	.	[8g-J	.	.
=71	=71	=71	=71	=71	=71	=71	=71	=71	=71	=71	=71	=71	=71	=71	=71
1r	.	8G-L]	.	2GG-	.	.	4.B-]	.	1r	.	1r	.	8g-L]	.	.
.	.	8F	.	.	.	.	.	.	.	.	.	.	8f	.	.
.	.	8D-	.	.	.	.	.	.	.	.	.	.	8d-	.	.
.	.	[8E-J	.	.	.	.	[8e-	.	.	.	.	.	[8e-J	.	.
.	.	4E-]	.	4AA-	.	.	8e-L]	.	.	.	.	.	4e-]	.	.
.	.	.	.	.	.	.	8d-J	.	.	.	.	.	.	.	.
.	.	8B-L	.	4GG-	.	.	4c	.	.	.	.	.	8b-L	.	.
.	.	[8A-J	.	.	.	.	.	.	.	.	.	.	[8a-J	.	.
=72	=72	=72	=72	=72	=72	=72	=72	=72	=72	=72	=72	=72	=72	=72	=72
1r	.	8A-L]	.	2FF	.	.	4A-	.	1r	.	1r	.	8a-L]	.	.
.	.	8F	.	.	.	.	.	.	.	.	.	.	8f	.	.
.	.	8e-	.	.	.	.	8A-L	.	.	.	.	.	8ee-	.	.
.	.	[8d-J	.	.	.	.	[8B-J	.	.	.	.	.	[8dd-J	.	.
.	.	4d-]	.	2BB-	.	.	8B-]	.	.	.	.	.	4dd-]	.	.
.	.	.	.	.	.	.	4d-	.	.	.	.	.	.	.	.
.	.	8B-L	.	.	.	.	.	.	.	.	.	.	8b-L	.	.
.	.	[8A-J	.	.	.	.	[8e-	.	.	.	.	.	[8a-J	.	.
=73	=73	=73	=73	=73	=73	=73	=73	=73	=73	=73	=73	=73	=73	=73	=73
1r	.	8A-L]	.	2FF	.	.	8e-]	.	1r	.	1r	.	8a-L]	.	.
.	.	8F	.	.	.	.	4c	.	.	.	.	.	8f	.	.
.	.	8e-	.	.	.	.	.	.	.	.	.	.	8ee-	.	.
.	.	[8d-J	.	.	.	.	[8d-	.	.	.	.	.	[8dd-J	.	.
.	.	4d-]	.	2BB-	.	.	8d-]	.	.	.	.	.	4dd-]	.	.
.	.	.	.	.	.	.	4.d-	.	.	.	.	.	.	.	.
.	.	8r	.	.	.	.	.	.	.	.	.	.	8r	.	.
.	.	8D-	.	.	.	.	.	.	.	.	.	.	8d-	.	.
=74	=74	=74	=74	=74	=74	=74	=74	=74	=74	=74	=74	=74	=74	=74	=74
1r	.	8G-L	.	2E-	.	.	4.B-	.	1r	.	1r	.	8g-L	.	.
.	.	8G-	.	.	.	.	.	.	.	.	.	.	8g-	.	.
.	.	8G-	.	.	.	.	.	.	.	.	.	.	8g-	.	.
.	.	[8G-J	.	.	.	.	8B-	.	.	.	.	.	[8g-J	.	.
.	.	8G-L]	.	2E-	.	.	4B-	.	.	.	.	.	8g-L]	.	.
.	.	8A-	.	.	.	.	.	.	.	.	.	.	8a-	.	.
.	.	8B-	.	.	.	.	4d-	.	.	.	.	.	8b-	.	.
.	.	[8A-J	.	.	.	.	.	.	.	.	.	.	[8a-J	.	.
=75	=75	=75	=75	=75	=75	=75	=75	=75	=75	=75	=75	=75	=75	=75	=75
1r	.	4A-]	.	4AA-	.	.	8cL	.	2r	.	1r	.	4a-]	.	.
.	.	.	.	.	.	.	8B-J	.	.	.	.	.	.	.	.
.	.	8A-L	.	4EE-	.	.	4A-	.	.	.	.	.	8a-L	.	.
.	.	[8AnJ	.	.	.	.	.	.	.	.	.	.	[8a-J	.	.
.	.	4A]	.	4FF	< <	.	4r	< <	8ee-L 8gg-	mp	.	.	4a-]	.	.
.	.	.	.	.	.	.	.	.	8cc 8ff	.	.	.	.	.	.
.	.	4r	.	8FL	.	.	8B-L	.	8cc 8ee-	.	.	.	8b-L	.	.
.	.	.	.	8AnJ	[[	.	8cJ	[[	8a-J 8cc	.	.	.	8ccJ	.	.
=76||	=76||	=76||	=76||	=76||	=76||	=76||	=76||	=76||	=76||	=76||	=76||	=76||	=76||	=76||	=76||
2BBB-	mf	1rG	.	8B-L	[ mp	.	8d-L	[ mf mf	8g-L 8b-	.	1r	.	8dd-L	mf mf	.
.	.	.	.	8F	.	.	8A-	.	8a- 8cc	.	.	.	8a-	.	.
.	.	.	.	8D-	.	.	8F	.	8b- 8dd-	.	.	.	8f	.	.
.	.	.	.	[8D-J	.	.	[8G-J	.	[8dd-J [8gg-	.	.	.	[8g-J	.	.
2BBB-	.	.	.	8D-L]	.	.	8G-L]	.	2dd-] 2gg-]	.	.	.	8g-L]	.	.
.	.	.	.	8c	.	.	8e-	.	.	.	.	.	8ee-	.	.
.	.	.	.	8B-	.	.	8d-	.	.	.	.	.	8dd-	.	.
.	.	.	.	[8A-J	.	.	[8cJ	.	.	.	.	.	[8ccJ	.	.
=77	=77	=77	=77	=77	=77	=77	=77	=77	=77	=77	=77	=77	=77	=77	=77
2AAA-	.	1r	.	8A-L]	.	.	8cL]	.	8a-L 8cc	.	1r	.	8ccL]	.	.
.	.	.	.	8F	.	.	8B-	.	8b- 8dd-	.	.	.	8b-	.	.
.	.	.	.	8F	.	.	8c	.	8cc 8ee-	.	.	.	8cc	.	.
.	.	.	.	8FJ	.	.	8d-J	.	[8dd-J [8ff	.	.	.	8dd-J	.	.
2DD-	.	.	.	8r	.	.	8r	.	2dd-] 2ff]	.	.	.	8r	.	.
.	.	.	.	8d-L	.	.	8a-L	.	.	.	.	.	8aa-L	.	.
.	.	.	.	8d-	.	.	8g-	.	.	.	.	.	8gg-	.	.
.	.	.	.	[8B-J	.	.	[8fJ	.	.	.	.	.	[8ffJ	.	.
=78	=78	=78	=78	=78	=78	=78	=78	=78	=78	=78	=78	=78	=78	=78	=78
2GGG-	.	1r	.	8B-L]	.	.	8fL]	.	8g-L 8b-	.	1r	.	8ffL]	.	.
.	.	.	.	8A-	.	.	8e-	.	8b- 8dd-	.	.	.	8ee-	.	.
.	.	.	.	8A-	.	.	8e-	.	8dd- 8ee-	.	.	.	8ee-	.	.
.	.	.	.	[8GnJ	.	.	[8d-J	.	[8ee-J [8ggn	.	.	.	[8dd-J	.	.
2EE-	.	.	.	4.G]	.	.	4.d-]	.	2ee-] 2gg]	.	.	.	4.dd-]	.	.
.	.	.	.	8BB-	.	.	8B-	.	.	.	.	.	8b-	.	.
=79	=79	=79	=79	=79	=79	=79	=79	=79	=79	=79	=79	=79	=79	=79	=79
2AAA-	.	1r	.	8D-L	.	.	8d-L	.	8a-L 8dd-	.	1r	.	8dd-L	.	.
.	.	.	.	8E-	.	.	8e-	.	8dd- 8ee-	.	.	.	8ee-	.	.
.	.	.	.	8BB-	.	.	8B-	.	8ee- 8aa-	.	.	.	8b-	.	.
.	.	.	.	[8CJ	.	.	[8cJ	.	[8ffJ [8aan	.	.	.	[8ccJ	.	.
2FFF	.	.	.	8CL]	.	.	8cL]	.	8ffL] 8aa]	.	.	.	8ccL]	.	.
.	.	.	.	8G-	.	.	8B-	.	8ccJ 8gg-	.	.	.	8b-	.	.
.	.	.	.	8A-	.	.	8c	.	4cc 4ff	.	.	.	8cc	.	.
.	.	.	.	[8B-J	.	.	[8d-J	.	.	.	.	.	[8dd-J	.	.
=80	=80	=80	=80	=80	=80	=80	=80	=80	=80	=80	=80	=80	=80	=80	=80
2BBB-	.	1r	.	8B-L]	.	.	8d-L]	.	8g-L 8b-	.	1r	.	8dd-L]	.	.
.	.	.	.	8D-	.	.	8F	.	8a- 8cc	.	.	.	8f	.	.
.	.	.	.	8D-	.	.	8F	.	8b- 8dd-	.	.	.	8f	.	.
.	.	.	.	[8D-J	.	.	[8G-J	.	[8b-J [8ee-	.	.	.	[8g-J	.	.
2BBB-	.	.	.	8D-L]	.	.	8G-L]	.	2b-] 2ee-]	.	.	.	8g-L]	.	.
.	.	.	.	8c	.	.	8e-	.	.	.	.	.	8ee-	.	.
.	.	.	.	8B-	.	.	8d-	.	.	.	.	.	8dd-	.	.
.	.	.	.	[8A-J	.	.	[8cJ	.	.	.	.	.	[8ccJ	.	.
=81	=81	=81	=81	=81	=81	=81	=81	=81	=81	=81	=81	=81	=81	=81	=81
2AAA-	.	1r	.	4A-]	.	.	4c]	.	8a-L 8cc	.	1r	.	4cc]	.	.
.	.	.	.	.	.	.	.	.	8b- 8dd-	.	.	.	.	.	.
.	.	.	.	8FL	.	.	8cL	.	8cc 8ee-	.	.	.	8ccL	.	.
.	.	.	.	8FJ	.	.	8d-J	.	[8dd-J [8ff	.	.	.	8dd-J	.	.
2DD-	.	.	.	8r	.	.	8r	.	2dd-] 2ff]	.	.	.	8r	.	.
.	.	.	.	8d-L	.	.	8a-L	.	.	.	.	.	8aa-L	.	.
.	.	.	.	8d-	.	.	8g-	.	.	.	.	.	8gg-	.	.
.	.	.	.	[8B-J	.	.	[8fJ	.	.	.	.	.	[8ffJ	.	.
=82	=82	=82	=82	=82	=82	=82	=82	=82	=82	=82	=82	=82	=82	=82	=82
2GGG-	.	1r	.	4B-]	.	.	4f]	.	8g-L 8b-	.	1r	.	4ff]	.	.
.	.	.	.	.	.	.	.	.	8b- 8dd-	.	.	.	.	.	.
.	.	.	.	16A-LL	.	.	16e-LL	.	8dd- 8ee-	.	.	.	16ee-LL	.	.
.	.	.	.	16A-J	.	.	16e-J	.	.	.	.	.	16ee-J	.	.
.	.	.	.	[8GnJ	.	.	[8d-J	.	[8ee-J [8ggn	.	.	.	[8dd-J	.	.
2EE-	.	.	.	8GL]	.	.	8d-L]	.	2ee-] 2gg]	.	.	.	8dd-L]	.	.
.	.	.	.	8A-J	.	.	8e-J	.	.	.	.	.	8ee-J	.	.
.	.	.	.	8.B-L	.	.	8.fL	.	.	.	.	.	8.ffL	.	.
.	.	.	.	[16A-Jk	.	.	[16e-Jk	.	.	.	.	.	[16ee-Jk	.	.
=83	=83	=83	=83	=83	=83	=83	=83	=83	=83	=83	=83	=83	=83	=83	=83
1AA-	.	4r	.	2A-]	.	.	4e-]	.	8e-L 8a-	< <	1r	.	4ee-]	.	.
.	.	.	.	.	.	.	.	.	8a- 8cc	.	.	.	.	.	.
.	.	8r	.	.	.	.	8A-L	.	8cc 8ee-	.	.	.	8a-L	.	.
.	.	8A-	.	.	.	.	8A-J	.	[8ee-J [8aa-	.	.	.	8a-J	.	.
.	.	8d-L	.	8A-L	.	.	8d-L	.	8ee-L] 8aa-]	.	.	.	8dd-L	.	.
.	.	8cJ	.	8E-J	.	.	8cJ	.	8gg-	.	.	.	8ccJ	.	.
.	.	4d-	.	4AA-	.	.	4d-	.	8ee-	.	.	.	4dd-	.	.
.	.	.	.	.	.	.	.	.	8ccJ	[[	.	.	.	.	.
=84	=84	=84	=84	=84	=84	=84	=84	=84	=84	=84	=84	=84	=84	=84	=84
4.GG-	mp <	4.G- 4.d- 4.g- 4.a-	mp <	8GG-L	mp <	.	1r	.	8g-L	[	1r	.	1r	.	.
.	.	.	.	8AA-	.	.	.	.	8a-J	.	.	.	.	.	.
.	.	.	.	8D-	.	.	.	.	2.dd-	.	.	.	.	.	.
[8FF	.	[8A- [8d- [8f [8a-	.	[8FFJ	.	.	.	.	.	.	.	.	.	.	.
4FF]	.	4A-] 4d-] 4f] 4a-]	.	8FFL]	.	.	.	.	.	.	.	.	.	.	.
.	.	.	.	8AA-J	.	.	.	.	.	.	.	.	.	.	.
4FF	.	4A- 4d- 4f 4a-	.	4D-	.	.	.	.	.	.	.	.	.	.	.
=85	=85	=85	=85	=85	=85	=85	=85	=85	=85	=85	=85	=85	=85	=85	=85
4.GG-	.	4.G- 4.d- 4.g- 4.a-	.	8GG-L	.	.	8G-L	mf <	8g-L	mf <	1r	.	1r	.	.
.	.	.	.	8AA-	.	.	8A-	.	8a-J	.	.	.	.	.	.
.	.	.	.	8D-	.	.	8d-	.	[4dd-	.	.	.	.	.	.
[8FF	.	[8A- [8d- [8f [8a-	.	[8FFJ	.	.	[8FJ	.	.	.	.	.	.	.	.
4FF]	.	4A-] 4d-] 4f] 4a-]	.	8FFL]	.	.	8FL]	.	8dd-L]	.	.	.	.	.	.
.	.	.	.	8AA-J	.	.	8A-J	.	8ee-	.	.	.	.	.	.
4FF	.	4A- 4d- 4f 4a-	.	4D-	.	.	4d-	.	8ff	.	.	.	.	.	.
.	.	.	.	.	.	.	.	.	8gg-J	.	.	.	.	.	.
=86	=86	=86	=86	=86	=86	=86	=86	=86	=86	=86	=86	=86	=86	=86	=86
8GGG-L	.	4.G- 4.d- 4.g- 4.a-	.	8GG-L	.	.	8G-L	.	2.aa-	.	8g-L	mf <	1r	.	.
8AAA-	.	.	.	8AA-	.	.	8A-	.	.	.	8a-	.	.	.	.
8DD-	.	.	.	8D-	.	.	8d-	.	.	.	8dd-	.	.	.	.
[8FFFJ	.	[8A- [8d- [8f [8a-	.	[8FFJ	.	.	[8FJ	.	.	.	[8fJ	.	.	.	.
8FFF]	.	8A-] 8d-] 8f] 8a-]	.	8FFL]	.	.	8FL]	.	.	.	8fL]	.	.	.	.
4AAA-	.	4A- 4d- 4f 4a-	.	8GG-	.	.	8G-	.	.	.	8g-	.	.	.	.
.	.	.	.	8EE-	.	.	8E-	.	8bb-L	.	8f	.	.	.	.
[8DD-	.	[8D- [8A- [8d- [8f [8a-	.	[8DD-J	.	.	[8D-J	.	[8ddd-J	.	[8d-J	.	.	.	.
=87	=87	=87	=87	=87	=87	=87	=87	=87	=87	=87	=87	=87	=87	=87	=87
8DD-L]	.	8D-L] 8A-] 8d-] 8f] 8a-]	.	8DD-L]	.	.	8D-L]	.	2ddd-]	.	2d-]	.	2r	.	.
8DD-	.	8D- 8A- 8d- 8f 8a-	.	8DD-	.	.	8D-	.	.	.	.	.	.	.	.
8DD-	.	8D- 8A- 8d- 8f 8a-	.	8DD-	.	.	8D-	.	.	.	.	.	.	.	.
8DD-J	.	8D-J 8A- 8d- 8f 8a-	.	8DD-J	.	.	8D-J	.	.	.	.	.	.	.	.
8DD-L	.	8D-L 8A- 8d- 8f 8a-	.	8DD-L	.	.	8FL	.	8aa-L	.	2r	[	8a-L	.	.
8DD-	.	8D- 8A- 8d- 8f 8a-	.	8DD-	.	.	8G-	.	8bb-	.	.	.	8b-	.	.
8DD-	.	8D- 8A- 8d- 8f 8a-	.	8DD-	.	.	8A-	.	8ddd-	.	.	.	8dd-	.	.
8GG-J	[[	8GG-J 8D- 8G- 8B- 8d- 8g-	[[	8G-J	[[	.	8d-J	[[	8fffJ	[[	.	.	8ffJ	.	.
=88||	=88||	=88||	=88||	=88||	=88||	=88||	=88||	=88||	=88||	=88||	=88||	=88||	=88||	=88||	=88||
2DD-	mf >	4A- 4d- 4f 4a-	mf >	8D-L	mf >	.	8A-L	mf	[2d-	mf	[2dd-	mf	1r	.	.
.	.	.	.	8D-	.	.	8d-	.	.	.	.	.	.	.	.
.	.	8A-L 8d- 8f 8a-	.	8D-	.	.	8f	.	.	.	.	.	.	.	.
.	.	[8A-J [8d- [8e- [8a-	.	8D-J	.	.	[8d-J	.	.	.	.	.	.	.	.
4DD-	.	8A-L] 8d-] 8e-] 8a-]	.	8D-L	.	.	8d-]	.	8d-]	.	8dd-]	.	.	.	.
.	.	8A-J 8d- 8e- 8a-	.	8D-	.	.	4.f	.	4e-	.	4ee-	.	.	.	.
4DD-	]]	4A- 4d- 4e- 4a-	]]	8D-	.	.	.	.	.	.	.	.	.	.	.
.	.	.	.	8D-J	]]	.	.	.	[8g-	.	[8gg-	.	.	.	.
=89	=89	=89	=89	=89	=89	=89	=89	=89	=89	=89	=89	=89	=89	=89	=89
*	*	*	*	*^	*	*	*	*	*	*	*	*	*	*	*
4DD-	>	8A-L 8d- 8f 8a-	>	2r	8D-L	>	.	8fL	>	8g-L]	>	8gg-L]	>	2r	.	.
.	.	8A-J 8d- 8f 8a-	.	.	8D-	.	.	8a-	.	8f	.	8ff	.	.	.	.
4DD-	.	2.A- 2.d- 2.f 2.a-	]	.	8D-	.	.	8dd-	.	8e-	.	8ee-	.	.	.	.
.	.	.	.	.	8D-J	.	.	8fJ	.	[8d-J	.	[8dd-J	.	.	.	.
*	*	*	*	*v	*v	*	*	*	*	*	*	*	*	*	*	*
4DD-	]	.	.	8.A-L	] f	.	8fL	]	8d-L]	]	2dd-]	]	8.A-L	f	.
.	.	.	.	.	.	.	8a-J	.	8d-	.	.	.	.	.	.
.	.	.	.	[16d-Jk	.	.	.	.	.	.	.	.	[16d-Jk	.	.
4DD-	.	.	.	8d-L]	.	.	4dd-	.	8a-	.	.	.	8d-L]	.	.
.	.	.	.	[8e-J	.	.	.	.	8d-J	.	.	.	[8e-J	.	.
=90||	=90||	=90||	=90||	=90||	=90||	=90||	=90||	=90||	=90||	=90||	=90||	=90||	=90||	=90||	=90||
2.CC	p	4E- 4A- 4c 4e- 4a-	p	4.e-]	.	.	4.C	mp	1e- 1ee-	mp	4cc 4ee-	mp	4.e-]	.	.
.	.	8E-L 8A- 8c 8e- 8a-	.	.	.	.	.	.	.	.	4a-	.	.	.	.
.	.	[8E-J [8A- [8c [8e- [8a-	.	8e-	.	.	[8c	.	.	.	.	.	8e-	.	.
.	.	8E-L] 8A-] 8c] 8e-] 8a-]	.	8.e-L	.	.	2c]	.	.	.	4cc 4ee-	.	8.e-L	.	.
.	.	8E- 8A- 8c 8e- 8a-	.	.	.	.	.	.	.	.	.	.	.	.	.
.	.	.	.	[16cJk	.	.	.	.	.	.	.	.	[16cJk	.	.
4FFF	.	8E- 8A- 8c 8e- 8a-	.	8cL]	.	.	.	.	.	.	4a-	.	8cL]	.	.
.	.	8E-J 8A- 8c 8e- 8a-	.	[8fJ	.	.	.	.	.	.	.	.	[8fJ	.	.
=91	=91	=91	=91	=91	=91	=91	=91	=91	=91	=91	=91	=91	=91	=91	=91
2.BBB-	.	8BB-L 8F 8B- 8d- 8f	.	8fL]	.	.	4d-	.	2f 2ff	.	4b- 4dd-	.	8fL]	.	.
.	.	8BB- 8F 8B- 8d- 8f	.	8B-J	.	.	.	.	.	.	.	.	8B-J	.	.
.	.	8BB- 8F 8B- 8d- 8f	.	4r	.	.	8FL	.	.	.	4f	.	4r	.	.
.	.	[8BB-J [8F [8B- [8d- [8f	.	.	.	.	8A-J	.	.	.	.	.	.	.	.
.	.	8BB-L] 8F] 8B-] 8d-] 8f]	.	8B-	.	.	2d-	.	2b- 2bb-	.	4b- 4dd-	.	8B-	.	.
.	.	8BB- 8F 8B- 8d- 8f	.	4d-	.	.	.	.	.	.	.	.	4d-	.	.
4FFF	.	8BB- 8F 8B- 8d- 8f	.	.	.	.	.	.	.	.	4f	.	.	.	.
.	.	8BB-J 8F 8B- 8d- 8f	.	[8e-	.	.	.	.	.	.	.	.	[8e-	.	.
=92	=92	=92	=92	=92	=92	=92	=92	=92	=92	=92	=92	=92	=92	=92	=92
4AAA-	.	4E- 4A- 4c-X 4e- 4a-	.	4e-]	.	.	8r	.	2.cc-X 2.ccc-X	.	4cc-X 4ee-	.	4e-]	.	.
.	.	.	.	.	.	.	8E-L	.	.	.	.	.	.	.	.
4CC	.	8E-L 8A- 8c- 8e- 8a-	.	8fL	.	.	8G-	.	.	.	4a-	.	8fL	.	.
.	.	8E-J 8A- 8c- 8e- 8a-	.	[8g-J	.	.	8A-J	.	.	.	.	.	[8g-J	.	.
4DD-	.	4D- 4A- 4d- 4f 4a-	.	4g-]	.	.	8d-	.	.	.	4cc- 4ee-	.	4g-]	.	.
.	.	.	.	.	.	.	4e-	.	.	.	.	.	.	.	.
4AAA-	.	8D-L 8A- 8d- 8f 8a-	.	8fL	.	.	.	.	4b- 4bb-	.	4b-	.	8fL	.	.
.	.	8D-J 8A- 8d- 8f 8a-	.	[8fJ	.	.	8d-	.	.	.	.	.	[8fJ	.	.
=93	=93	=93	=93	=93	=93	=93	=93	=93	=93	=93	=93	=93	=93	=93	=93
4GGG-	.	4GG- 4D- 4G- 4B- 4d- 4g-	.	8f]	.	.	4d-	.	4a- 4aa-	.	4b- 4dd-	.	8f]	.	.
.	.	.	.	4.d-	.	.	.	.	.	.	.	.	4.d-	.	.
4DD-	.	8GG-L 8D- 8G- 8B- 8d- 8g-	.	.	.	.	8G-L	.	4g- 4gg-	.	4g-	.	.	.	.
.	.	[8GG-J [8D- [8G- [8B- [8d- [8g-	.	.	.	.	[8d-J	.	.	.	.	.	.	.	.
4GG-	.	8GG-L] 8D-] 8G-] 8B-] 8d-] 8g-]	.	2r	.	.	2d-]	.	4f 4ff	.	4b- 4dd-	.	2r	.	.
.	.	8GG- 8D- 8G- 8B- 8d- 8g-	.	.	.	.	.	.	.	.	.	.	.	.	.
4DD-	.	8GG- 8D- 8G- 8B- 8d- 8g-	.	.	.	.	.	.	4d- 4dd-	.	4g-	.	.	.	.
.	.	8GG-J 8D- 8G- 8B- 8d- 8g-	.	.	.	.	.	.	.	.	.	.	.	.	.
=94	=94	=94	=94	=94	=94	=94	=94	=94	=94	=94	=94	=94	=94	=94	=94
2.FFF	.	4FF 4C 4F 4A- 4c 4f	.	8.r	.	.	4F	.	2e- 2ee-	.	4a- 4cc	.	8.r	.	.
.	.	.	.	16c	.	.	.	.	.	.	.	.	16c	.	.
.	.	8FFL 8C 8F 8A- 8c 8f	.	8a-L	.	.	8cL	.	.	.	4f	.	8a-L	.	.
.	.	[8FFJ [8C [8F [8A- [8c [8f	.	[8fJ	.	.	[8fJ	.	.	.	.	.	[8fJ	.	.
.	.	8FFL] 8C] 8F] 8A-] 8c] 8f]	.	8fL]	.	.	2f]	.	2c 2cc	.	4a- 4cc	.	8fL]	.	.
.	.	8FF 8C 8F 8A- 8c 8f	.	8d-	.	.	.	.	.	.	.	.	8d-	.	.
4AAA-	.	8FF 8C 8F 8A- 8c 8f	.	8c	.	.	.	.	.	.	4f	.	8c	.	.
.	.	8FFJ 8C 8F 8A- 8c 8f	.	8d-J	.	.	.	.	.	.	.	.	8d-J	.	.
=95	=95	=95	=95	=95	=95	=95	=95	=95	=95	=95	=95	=95	=95	=95	=95
2.BBB-	.	4BB- 4F 4B- 4d- 4f	.	8.cL	.	.	4B-	.	2d- 2dd-	.	4b- 4dd-	.	8.cL	.	.
.	.	.	.	[16d-Jk	.	.	.	.	.	.	.	.	[16d-Jk	.	.
.	.	8BB-L 8F 8B- 8d- 8f	.	8d-L]	.	.	8d-L	.	.	.	4f	.	8d-L]	.	.
.	.	[8BB-J [8F [8B- [8d- [8f	.	[8a-J	.	.	[8fJ	.	.	.	.	.	[8a-J	.	.
.	.	8BB-L] 8F] 8B-] 8d-] 8f]	.	8a-L]	.	.	4f]	.	2f 2ff	.	4b- 4dd-	.	8a-L]	.	.
.	.	8BB- 8F 8B- 8d- 8f	.	8d-J	.	.	.	.	.	.	.	.	8d-J	.	.
4DD-	.	8BB- 8F 8B- 8d- 8f	.	8r	.	.	4f	.	.	.	4f	.	8r	.	.
.	.	8BB-J 8F 8B- 8d- 8f	.	8d-	.	tutti.	.	.	.	.	.	.	8d-	.	tutti.
=96	=96	=96	=96	=96	=96	=96	=96	=96	=96	=96	=96	=96	=96	=96	=96
4EE-	<	8E-L 8B- 8e- 8g-	<	8c	<	.	4G-	<	4g-	<	4b- 4ee-	<	8c	<	.
.	.	8E- 8B- 8e- 8g-	.	4d-	.	.	.	.	.	.	.	.	4d-	.	.
4EE-	.	8E- 8B- 8e- 8g-	.	.	.	.	4A-	.	4a-	.	4g-	.	.	.	.
.	.	8E-J 8B- 8e- 8g-	.	[8a-	.	.	.	.	.	.	.	.	[8a-	.	.
4EE-	.	8E-L 8B- 8e- 8g-	.	8a-L]	.	.	4B-	.	4b-	.	4b- 4ee-	.	8a-L]	.	.
.	.	8E- 8B- 8e- 8g-	.	8g-	.	.	.	.	.	.	.	.	8g-	.	.
4EE-	.	8E- 8B- 8e- 8g-	.	8f	.	.	4d-	.	4dd-	.	4g-	.	8f	.	.
.	.	8E-J 8B- 8e- 8g-	.	[8A-J	.	.	.	.	.	.	.	.	[8A-J	.	.
=97	=97	=97	=97	=97	=97	=97	=97	=97	=97	=97	=97	=97	=97	=97	=97
4AAA-	.	8AA-L 8E- 8A- 8c 8e- 8a-	.	8A-]	.	.	4G-	.	4g-	.	4a- 4dd-	.	8A-]	.	.
.	.	8AA- 8E- 8A- 8c 8e- 8a-	.	[4.e-	.	.	.	.	.	.	.	.	[4.e-	.	.
4AAA-	.	8AA- 8E- 8A- 8c 8e- 8a-	.	.	.	.	4A-	.	4a-	.	4g-	.	.	.	.
.	.	8AA-J 8E- 8A- 8c 8e- 8a-	.	.	.	.	.	.	.	.	.	.	.	.	.
4AAA-	.	8AA-L 8E- 8A- 8c 8e- 8a-	.	2e-]	.	.	4B-	.	4b-	.	4a- 4dd-	.	2e-]	.	.
.	.	8AA- 8E- 8A- 8c 8e- 8a-	.	.	.	.	.	.	.	.	.	.	.	.	.
4AAA-	.	8AA- 8E- 8A- 8c 8e- 8a-	.	.	.	.	4d-	.	4dd-	.	4g-	.	.	.	.
.	.	8AA-J 8E- 8A- 8c 8e- 8a-	.	.	.	.	.	.	.	.	.	.	.	.	.
=98	=98	=98	=98	=98	=98	=98	=98	=98	=98	=98	=98	=98	=98	=98	=98
*k[f#c#]	*	*k[f#c#]	*	*k[f#c#]	*	*	*k[f#c#]	*	*k[f#c#]	*	*k[f#c#]	*	*k[f#c#]	*	*
6AAA^	.	6AA^ 6E 6A 6c# 6e	.	1e	[[	.	6G^	.	6g^	.	1cc# 1ee	[[	1e	[[	.
6AAA^	.	6AA^ 6E 6A 6c# 6e	.	.	.	.	6A^	.	6a^	.	.	.	.	.	.
6AAA^	.	6AA^ 6E 6A 6c# 6e	.	.	.	.	6B^	.	6b^	.	.	.	.	.	.
6AAA^	.	6AA^ 6E 6A 6c# 6e	.	.	.	.	6d^	.	6dd^	.	.	.	.	.	.
6AAA^	.	6AA^ 6E 6A 6c# 6e	.	.	.	.	6e^	.	6ee^	.	.	.	.	.	.
6AAA^	[[	6AA^ 6E 6A 6c# 6e	[[	.	.	.	6g^	[[	6gg^	[[	.	.	.	.	.
=99||	=99||	=99||	=99||	=99||	=99||	=99||	=99||	=99||	=99||	=99||	=99||	=99||	=99||	=99||	=99||
4GGG^	ff	4GG^ 4BB 4D 4G 4B 4f#	ff	4GG^	ff	.	4f#^	ff	8r	.	8r	.	8r	.	.
.	.	.	.	.	.	.	.	.	8ddL	ff	8ff#L	ff	8ff#L	ff	.
4r	.	4r	.	4r	.	.	4r	.	8dd	.	8ff#	.	8ff#	.	.
.	.	.	.	.	.	.	.	.	8ddJ	.	8ff#J	.	8ff#J	.	.
8r	.	8r	.	8r	.	.	8r	.	4.dd	.	4.ff#	.	4.ff#	.	.
[8GGG	.	[8GG^ [8BB [8D [8G [8B [8f#	.	[8GG^	.	.	[8f#^	.	.	.	.	.	.	.	.
16GGGKL]	.	16GGKL] 16BB] 16D] 16G] 16B] 16f#]	.	16GGKL]	.	.	16f#KL]	.	.	.	.	.	.	.	.
8.GGG^J	.	8.GG^J 8.BB 8.D 8.G 8.B 8.f#	.	8.GG^J	.	.	8.f#^J	.	.	.	.	.	.	.	.
.	.	.	.	.	.	.	.	.	8dd	.	8ff#	.	8ff#	.	.
=100	=100	=100	=100	=100	=100	=100	=100	=100	=100	=100	=100	=100	=100	=100	=100
2AAA	.	4AA 4E 4A 4c# 4e	.	8DL	.	.	4e	.	8ddL	.	8ff#L	.	8ff#L	.	.
.	.	.	.	8c#	.	.	.	.	8cc#	.	8ee	.	8ee	.	.
.	.	8AAL 8E 8A 8c# 8e	.	8B	.	.	8eL	.	8b	.	8dd	.	8dd	.	.
.	.	8AAJ 8E 8A 8c# 8e	.	8DJ	.	.	[8aJ	.	[8aJ	.	[8cc#J	.	[8cc#J	.	.
4.AAA	.	8AAL 8E 8A 8c# 8e	.	8c#	.	.	8aL]	.	8aL]	.	8cc#L]	.	8cc#L]	.	.
.	.	8AA 8E 8A 8c# 8e	.	4B	.	.	8e	.	8bJ	.	8ddJ	.	8ddJ	.	.
.	.	8AA 8E 8A 8c# 8e	.	.	.	.	8B	.	4cc#	.	4ee	.	4ee	.	.
[8FFF#	.	[8FF#J [8AA [8E [8A [8c# [8e	.	[8F#	.	.	[8AJ	.	.	.	.	.	.	.	.
=101	=101	=101	=101	=101	=101	=101	=101	=101	=101	=101	=101	=101	=101	=101	=101
4FFF#]	.	8FF#L] 8AA] 8E] 8A] 8c#] 8e]	.	8F#L]	.	.	4A]	.	8r	.	8r	.	8r	.	.
.	.	8FF# 8AA 8E 8A 8c# 8e	.	8F#	.	.	.	.	8cc#L	.	8eeL	.	8eeL	.	.
4FFF#	.	8FF# 8AA 8E 8A 8c# 8e	.	8F#	.	.	4e	.	8cc#	.	8ee	.	8ee	.	.
.	.	8FF#J 8AA 8E 8A 8c# 8e	.	8F#J	.	.	.	.	8cc#J	.	8eeJ	.	8eeJ	.	.
4FFF#	.	8FF#L 8AA 8E 8A 8c# 8e	.	8F#L	.	.	4c#	.	4.cc#	.	4.ee	.	4.ee	.	.
.	.	8FF#J 8AA 8E 8A 8c# 8e	.	8F#J	.	.	.	.	.	.	.	.	.	.	.
4FFF#	.	8FF#L 8AA 8E 8A 8c# 8e	.	8F#L	.	.	4e	.	.	.	.	.	.	.	.
.	.	16FF#L 16AA 16E 16A 16c# 16e	.	16F#L	.	.	.	.	8cc#	.	8ee	.	8ee	.	.
.	.	16FF#JJ 16AA 16E 16A 16c# 16e	.	16F#JJ	.	.	.	.	.	.	.	.	.	.	.
=102	=102	=102	=102	=102	=102	=102	=102	=102	=102	=102	=102	=102	=102	=102	=102
4BBB	.	8BBL 8F# 8B 8d 8f#	.	4BB	.	.	2r	.	8cc#L	.	8eeL	.	8eeL	.	.
.	.	8BB 8F# 8B 8d 8f#	.	.	.	.	.	.	8b	.	8dd	.	8dd	.	.
4BBB	.	8BB 8F# 8B 8d 8f#	.	4BB	.	.	.	.	8a	.	8cc#	.	8cc#	.	.
.	.	8BBJ 8F# 8B 8d 8f#	.	.	.	.	.	.	8bJ	.	8ddJ	.	8ddJ	.	.
8r	.	8BBL 8F# 8B 8d 8f#	.	8BBL	.	.	8r	.	8r	.	8r	.	8r	.	.
[8BBB^	.	8BB 8F# 8B 8d 8f#	.	[8BB^J	.	.	16BLL	.	[8a	.	[8cc#	.	[8cc#	.	.
.	.	.	.	.	.	.	16c#JJ	.	.	.	.	.	.	.	.
16BBBKL]	.	8BB 8F# 8B 8d 8f#	.	16BBKL]	.	.	16dLL	.	16aKL]	.	16cc#KL]	.	16cc#KL]	.	.
8.AAA^J	.	.	.	8.AA^J	.	.	16e	.	8.f#J	.	8.aJ	.	8.aJ	.	.
.	.	8BBJ 8F# 8B 8d 8f#	.	.	.	.	24f#	.	.	.	.	.	.	.	.
.	.	.	.	.	.	.	24g	.	.	.	.	.	.	.	.
.	.	.	.	.	.	.	24aJJ	.	.	.	.	.	.	.	.
=103	=103	=103	=103	=103	=103	=103	=103	=103	=103	=103	=103	=103	=103	=103	=103
4.EE	f	8EEL 8BB 8E 8G 8B 8e	f	8EL	f	.	2.b	f	4e	.	4g	.	4g	.	.
.	.	16EEL 16BB 16E 16G 16B 16e	.	8F#J	.	.	.	.	.	.	.	.	.	.	.
.	.	16EEJJ 16BB 16E 16G 16B 16e	.	.	.	.	.	.	.	.	.	.	.	.	.
.	.	8EEL 8BB 8E 8G 8B 8e	.	[4G	.	.	.	.	4f#	.	4a	.	4a	.	.
8EE	.	16EEL 16BB 16E 16G 16B 16e	.	.	.	.	.	.	.	.	.	.	.	.	.
.	.	16EEJJ 16BB 16E 16G 16B 16e	.	.	.	.	.	.	.	.	.	.	.	.	.
4.EE	.	8EEL 8BB 8E 8G 8B 8e	.	8GL]	.	.	.	.	4g	.	4b	.	4b	.	.
.	.	16EEL 16BB 16E 16G 16B 16e	.	8F#	.	.	.	.	.	.	.	.	.	.	.
.	.	16EEJJ 16BB 16E 16G 16B 16e	.	.	.	.	.	.	.	.	.	.	.	.	.
.	.	8EEL 8BB 8E 8G 8B 8e	.	8G	.	.	8GL	.	8eL	.	8gL	.	8gL	.	.
8EE	.	16EEL 16BB 16E 16G 16B 16e	.	[8AJ	.	.	8AJ	.	8c#J	.	8eJ	.	8eJ	.	.
.	.	16EEJJ 16BB 16E 16G 16B 16e	.	.	.	.	.	.	.	.	.	.	.	.	.
=104	=104	=104	=104	=104	=104	=104	=104	=104	=104	=104	=104	=104	=104	=104	=104
4.AAA	.	8AAL 8E 8A 8c# 8e	.	8AL]	.	.	4B	.	4c#	.	4e	.	4e	.	.
.	.	16AAL 16E 16A 16c# 16e	.	8G	.	.	.	.	.	.	.	.	.	.	.
.	.	16AAJJ 16E 16A 16c# 16e	.	.	.	.	.	.	.	.	.	.	.	.	.
.	.	8AAL 8E 8A 8c# 8e	.	8F#	.	.	4c#	.	[4cc#	.	[4ee	.	[4ee	.	.
8AAA	.	16AAL 16E 16A 16c# 16e	.	8EJ	.	.	.	.	.	.	.	.	.	.	.
.	.	16AAJJ 16E 16A 16c# 16e	.	.	.	.	.	.	.	.	.	.	.	.	.
4AAA	.	8AAL 8E 8A 8c# 8e	.	4C#	.	.	4d	.	8cc#]	.	8ee]	.	8ee]	.	.
.	.	16AAL 16E 16A 16c# 16e	.	.	.	.	.	.	8r	.	8r	.	8r	.	.
.	.	16AAJJ 16E 16A 16c# 16e	.	.	.	.	.	.	.	.	.	.	.	.	.
4AAA	.	8AAL 8E 8A 8c# 8e	.	4E	.	.	4e	.	4r	.	4r	.	4r	.	.
.	.	16AAL 16E 16A 16c# 16e	.	.	.	.	.	.	.	.	.	.	.	.	.
.	.	16AAJJ 16E 16A 16c# 16e	.	.	.	.	.	.	.	.	.	.	.	.	.
=105	=105	=105	=105	=105	=105	=105	=105	=105	=105	=105	=105	=105	=105	=105	=105
4.FF#	.	8FF#L 8C# 8F# 8A 8c# 8f#	.	8EL	.	.	2.c#	.	4a	.	4cc#	.	4cc#	.	.
.	.	16FF#L 16C# 16F# 16A 16c# 16f#	.	8F#	.	.	.	.	.	.	.	.	.	.	.
.	.	16FF#JJ 16C# 16F# 16A 16c# 16f#	.	.	.	.	.	.	.	.	.	.	.	.	.
.	.	8FF#L 8C# 8F# 8A 8c# 8f#	.	8G	.	.	.	.	4b	.	4dd	.	4dd	.	.
8FF#	.	16FF#L 16C# 16F# 16A 16c# 16f#	.	[8AJ	.	.	.	.	.	.	.	.	.	.	.
.	.	16FF#JJ 16C# 16F# 16A 16c# 16f#	.	.	.	.	.	.	.	.	.	.	.	.	.
4FF#	.	8FF#L 8C# 8F# 8A 8c# 8f#	.	8AL]	.	.	.	.	4cc#	.	4ee	.	4ee	.	.
.	.	16FF#L 16C# 16F# 16A 16c# 16f#	.	8GJ	.	.	.	.	.	.	.	.	.	.	.
.	.	16FF#JJ 16C# 16F# 16A 16c# 16f#	.	.	.	.	.	.	.	.	.	.	.	.	.
4FF#	.	8FF#L 8C# 8F# 8A 8c# 8f#	.	4F#	.	.	4A	.	8aL	.	8cc#L	.	8cc#L	.	.
.	.	16FF#L 16C# 16F# 16A 16c# 16f#	.	.	.	.	.	.	8f#J	.	8aJ	.	8aJ	.	.
.	.	16FF#JJ 16C# 16F# 16A 16c# 16f#	.	.	.	.	.	.	.	.	.	.	.	.	.
=106	=106	=106	=106	=106	=106	=106	=106	=106	=106	=106	=106	=106	=106	=106	=106
4.BBB	.	8BBL 8F# 8B 8d 8f#	.	4B	.	.	4d	.	4f#	.	4a	.	4a	.	.
.	.	16BBL 16F# 16B 16d 16f#	.	.	.	.	.	.	.	.	.	.	.	.	.
.	.	16BBJJ 16F# 16B 16d 16f#	.	.	.	.	.	.	.	.	.	.	.	.	.
.	.	8BBL 8F# 8B 8d 8f#	.	8c#L	.	.	8eL	.	4b	.	4dd	.	4dd	.	.
8BBB	.	16BBL 16F# 16B 16d 16f#	.	8dJ	.	.	8f#J	.	.	.	.	.	.	.	.
.	.	16BBJJ 16F# 16B 16d 16f#	.	.	.	.	.	.	.	.	.	.	.	.	.
2AAA	.	8BBL 8F# 8B 8d 8f#	.	8r	.	.	8r	.	8r	.	8ddL	.	8ddL	.	.
.	.	16BBL 16F# 16B 16d 16f#	.	4.d	.	.	4.f#	.	4.aa	.	8cc#	.	8cc#	.	.
.	.	16BBJJ 16F# 16B 16d 16f#	.	.	.	.	.	.	.	.	.	.	.	.	.
.	.	8BBL 8F# 8B 8d 8f#	.	.	.	.	.	.	.	.	8dd	.	8dd	.	.
.	.	16BBL 16F# 16B 16d 16f#	.	.	.	.	.	.	.	.	8eeJ	.	8eeJ	.	.
.	.	16BBJJ 16F# 16B 16d 16f#	.	.	.	.	.	.	.	.	.	.	.	.	.
=107	=107	=107	=107	=107	=107	=107	=107	=107	=107	=107	=107	=107	=107	=107	=107
2EE	.	8EEL 8BB 8E 8G 8B 8e	.	2G	.	.	2e	.	2gg	.	4ff#	.	4ff#	.	.
.	.	16EEL 16BB 16E 16G 16B 16e	.	.	.	.	.	.	.	.	.	.	.	.	.
.	.	16EEJJ 16BB 16E 16G 16B 16e	.	.	.	.	.	.	.	.	.	.	.	.	.
.	.	8EEL 8BB 8E 8G 8B 8e	.	.	.	.	.	.	.	.	8ggL	.	8ggL	.	.
.	.	16EEL 16BB 16E 16G 16B 16e	.	.	.	.	.	.	.	.	[8bJ	.	[8bJ	.	.
.	.	16EEJJ 16BB 16E 16G 16B 16e	.	.	.	.	.	.	.	.	.	.	.	.	.
2EE	.	8EEL 8BB 8E 8G 8B 8e	.	2F#	.	.	2d	.	2ff#	.	4b]	.	4b]	.	.
.	.	16EEL 16BB 16E 16G 16B 16e	.	.	.	.	.	.	.	.	.	.	.	.	.
.	.	16EEJJ 16BB 16E 16G 16B 16e	.	.	.	.	.	.	.	.	.	.	.	.	.
.	.	8EEL 8BB 8E 8G 8B 8e	.	.	.	.	.	.	.	.	8ddL	.	8ddL	.	.
.	.	16EEL 16BB 16E 16G 16B 16e	.	.	.	.	.	.	.	.	[8ff#J	.	[8ff#J	.	.
.	.	16EEJJ 16BB 16E 16G 16B 16e	.	.	.	.	.	.	.	.	.	.	.	.	.
=108	=108	=108	=108	=108	=108	=108	=108	=108	=108	=108	=108	=108	=108	=108	=108
2AAA	.	8EEL 8BB 8E 8G 8B 8e	.	2E	.	.	2B	.	2ee	.	4ff#]	.	4ff#]	.	.
.	.	16EEL 16BB 16E 16G 16B 16e	.	.	.	.	.	.	.	.	.	.	.	.	.
.	.	16EEJJ 16BB 16E 16G 16B 16e	.	.	.	.	.	.	.	.	.	.	.	.	.
.	.	8EEL 8BB 8E 8G 8B 8e	.	.	.	.	.	.	.	.	8ggL	.	8ggL	.	.
.	.	16EEL 16BB 16E 16G 16B 16e	.	.	.	.	.	.	.	.	[8eeJ	.	[8eeJ	.	.
.	.	16EEJJ 16BB 16E 16G 16B 16e	.	.	.	.	.	.	.	.	.	.	.	.	.
2FF#	.	8FF#L 8C# 8F# 8A#X 8c# 8f#	.	4F#	.	.	8AL	.	8cc#L	.	4ee]	.	4ee]	.	.
.	.	16FF#L 16C# 16F# 16A# 16c# 16f#	.	.	.	.	8B	.	8dd	.	.	.	.	.	.
.	.	16FF#JJ 16C# 16F# 16A# 16c# 16f#	.	.	.	.	.	.	.	.	.	.	.	.	.
.	.	8FF#L 8C# 8F# 8A# 8c# 8f#	.	4A#X	.	.	8c#	.	8ee	.	4r	.	4r	.	.
.	.	16FF#L 16C# 16F# 16A# 16c# 16f#	.	.	.	.	[8dJ	.	8ff#J	.	.	.	.	.	.
.	.	16FF#JJ 16C# 16F# 16A# 16c# 16f#	.	.	.	.	.	.	.	.	.	.	.	.	.
=109||	=109||	=109||	=109||	=109||	=109||	=109||	=109||	=109||	=109||	=109||	=109||	=109||	=109||	=109||	=109||
4.GG	.	8GGL 8D 8G 8B 8d 8f#	.	4B	.	.	4d]	.	8r	.	8r	.	8r	.	.
.	.	16GGL 16D 16G 16B 16d 16f#	.	.	.	.	.	.	8dd	.	8ff#	.	8ff#	.	.
.	.	16GGJJ 16D 16G 16B 16d 16f#	.	.	.	.	.	.	.	.	.	.	.	.	.
.	.	8GGL 8D 8G 8B 8d 8f#	.	8AL	.	.	4d	.	8ddL	.	8ff#L	.	8ff#L	.	.
8GG	.	16GGL 16D 16G 16B 16d 16f#	.	[8GJ	.	.	.	.	16ddL	.	16ff#L	.	16ff#L	.	.
.	.	16GGJJ 16D 16G 16B 16d 16f#	.	.	.	.	.	.	16ddJJ	.	16ff#JJ	.	16ff#JJ	.	.
4GG	.	8GGL 8D 8G 8B 8d 8f#	.	8G]	.	.	4b	.	4.dd	.	4.ff#	.	4.ff#	.	.
.	.	16GGL 16D 16G 16B 16d 16f#	.	4.A	.	.	.	.	.	.	.	.	.	.	.
.	.	16GGJJ 16D 16G 16B 16d 16f#	.	.	.	.	.	.	.	.	.	.	.	.	.
4GG	.	8GGL 8D 8G 8B 8d 8f#	.	.	.	.	4f#	.	.	.	.	.	.	.	.
.	.	16GGL 16D 16G 16B 16d 16f#	.	.	.	.	.	.	8dd	.	8ff#	.	8ff#	.	.
.	.	16GGJJ 16D 16G 16B 16d 16f#	.	.	.	.	.	.	.	.	.	.	.	.	.
=110	=110	=110	=110	=110	=110	=110	=110	=110	=110	=110	=110	=110	=110	=110	=110
2AA	.	8AAL 8E 8A 8c# 8e	.	8EL	.	.	2.e	.	8ddL	.	8ff#L	.	8ff#L	.	.
.	.	16AAL 16E 16A 16c# 16e	.	8DJ	.	.	.	.	8cc#	.	8ee	.	8ee	.	.
.	.	16AAJJ 16E 16A 16c# 16e	.	.	.	.	.	.	.	.	.	.	.	.	.
.	.	8AAL 8E 8A 8c# 8e	.	[4C#	.	.	.	.	8b	.	8dd	.	8dd	.	.
.	.	16AAL 16E 16A 16c# 16e	.	.	.	.	.	.	[8aJ	.	[8cc#J	.	[8cc#J	.	.
.	.	16AAJJ 16E 16A 16c# 16e	.	.	.	.	.	.	.	.	.	.	.	.	.
4AA	.	8AAL 8E 8A 8c# 8e	.	8C#L]	.	.	.	.	8aL]	.	8cc#L]	.	8cc#L]	.	.
.	.	16AAL 16E 16A 16c# 16e	.	8DJ	.	.	.	.	8bJ	.	8ddJ	.	8ddJ	.	.
.	.	16AAJJ 16E 16A 16c# 16e	.	.	.	.	.	.	.	.	.	.	.	.	.
4GG	.	8AAL 8E 8A 8c# 8e	.	4E	.	.	8eL	.	4cc#	.	4ee	.	4ee	.	.
.	.	16AAL 16E 16A 16c# 16e	.	.	.	.	16f#L	.	.	.	.	.	.	.	.
.	.	16AAJJ 16E 16A 16c# 16e	.	.	.	.	16gJJ	.	.	.	.	.	.	.	.
=111	=111	=111	=111	=111	=111	=111	=111	=111	=111	=111	=111	=111	=111	=111	=111
4.FF#	.	8FF#L 8C# 8F# 8A 8c# 8f#	.	4F#	.	.	4a	.	8r	.	8r	.	8r	.	.
.	.	16FF#L 16C# 16F# 16A 16c# 16f#	.	.	.	.	.	.	16cc#LL	.	16eeLL	.	16eeLL	.	.
.	.	16FF#JJ 16C# 16F# 16A 16c# 16f#	.	.	.	.	.	.	16cc#JJ	.	16eeJJ	.	16eeJJ	.	.
.	.	8FF#L 8C# 8F# 8A 8c# 8f#	.	4A	.	.	4g	.	16cc#LL	.	16eeLL	.	16eeLL	.	.
.	.	.	.	.	.	.	.	.	16cc#	.	16ee	.	16ee	.	.
8FF#	.	16FF#L 16C# 16F# 16A 16c# 16f#	.	.	.	.	.	.	16cc#	.	16ee	.	16ee	.	.
.	.	16FF#JJ 16C# 16F# 16A 16c# 16f#	.	.	.	.	.	.	16cc#JJ	.	16eeJJ	.	16eeJJ	.	.
4FF#	.	8FF#L 8C# 8F# 8A 8c# 8f#	.	8c#L	.	.	4f#	.	4.cc#	.	4.ee	.	4.ee	.	.
.	.	16FF#L 16C# 16F# 16A 16c# 16f#	.	8BJ	.	.	.	.	.	.	.	.	.	.	.
.	.	16FF#JJ 16C# 16F# 16A 16c# 16f#	.	.	.	.	.	.	.	.	.	.	.	.	.
4FF#	.	8FF#L 8C# 8F# 8A 8c# 8f#	.	4A	.	.	4e	.	.	.	.	.	.	.	.
.	.	16FF#L 16C# 16F# 16A 16c# 16f#	.	.	.	.	.	.	16cc#LL	.	16eeLL	.	16eeLL	.	.
.	.	16FF#JJ 16C# 16F# 16A 16c# 16f#	.	.	.	.	.	.	16cc#JJ	.	16eeJJ	.	16eeJJ	.	.
=112	=112	=112	=112	=112	=112	=112	=112	=112	=112	=112	=112	=112	=112	=112	=112
4BBB	.	8BBL 8F# 8B 8d 8f#	.	8BL	.	.	2.e	.	8cc#L	.	8eeL	.	8eeL	.	.
.	.	16BBL 16F# 16B 16d 16f#	.	8A	.	.	.	.	8b	.	8dd	.	8dd	.	.
.	.	16BBJJ 16F# 16B 16d 16f#	.	.	.	.	.	.	.	.	.	.	.	.	.
4BBB	.	8BBL 8F# 8B 8d 8f#	.	8G	.	.	.	.	8a	.	8cc#	.	8cc#	.	.
.	.	16BBL 16F# 16B 16d 16f#	.	8AJ	.	.	.	.	8bJ	.	8ddJ	.	8ddJ	.	.
.	.	16BBJJ 16F# 16B 16d 16f#	.	.	.	.	.	.	.	.	.	.	.	.	.
2AAA	.	8BBL 8F# 8B 8d 8f#	.	8GL	.	.	.	.	8r	.	8r	.	8r	.	.
.	.	16BBL 16F# 16B 16d 16f#	.	8F#J	.	.	.	.	[8a	.	[8cc#	.	[8cc#	.	.
.	.	16BBJJ 16F# 16B 16d 16f#	.	.	.	.	.	.	.	.	.	.	.	.	.
.	.	8BBL 8F# 8B 8d 8f#	.	4D	.	.	8c#L	.	16aKL]	.	16cc#KL]	.	16cc#KL]	.	.
.	.	.	.	.	.	.	.	.	8.f#J	.	8.aJ	.	8.aJ	.	.
.	.	16BBL 16F# 16B 16d 16f#	.	.	.	.	8AJ	.	.	.	.	.	.	.	.
.	.	16BBJJ 16F# 16B 16d 16f#	.	.	.	.	.	.	.	.	.	.	.	.	.
=113	=113	=113	=113	=113	=113	=113	=113	=113	=113	=113	=113	=113	=113	=113	=113
4.EE	.	8EEL 8BB 8E 8G 8B 8e	.	4.E	.	.	2.B	.	8.eL	.	8.gL	.	8.gL	.	.
.	.	16EEL 16BB 16E 16G 16B 16e	.	.	.	.	.	.	.	.	.	.	.	.	.
.	.	16EEJJ 16BB 16E 16G 16B 16e	.	.	.	.	.	.	16eJk	.	16gJk	.	16gJk	.	.
.	.	8EEL 8BB 8E 8G 8B 8e	.	.	.	.	.	.	4f#	.	4a	.	4a	.	.
8EE	.	16EEL 16BB 16E 16G 16B 16e	.	8F#	.	.	.	.	.	.	.	.	.	.	.
.	.	16EEJJ 16BB 16E 16G 16B 16e	.	.	.	.	.	.	.	.	.	.	.	.	.
4.EE	.	8EEL 8BB 8E 8G 8B 8e	.	4G	.	.	.	.	8.gL	.	8.bL	.	8.bL	.	.
.	.	16EEL 16BB 16E 16G 16B 16e	.	.	.	.	.	.	.	.	.	.	.	.	.
.	.	16EEJJ 16BB 16E 16G 16B 16e	.	.	.	.	.	.	16gJk	.	16bJk	.	16bJk	.	.
.	.	8EEL 8BB 8E 8G 8B 8e	.	4E	.	.	8GL	.	8.eL	.	8.gL	.	8.gL	.	.
8EE	.	16EEL 16BB 16E 16G 16B 16e	.	.	.	.	8AJ	.	.	.	.	.	.	.	.
.	.	16EEJJ 16BB 16E 16G 16B 16e	.	.	.	.	.	.	16c#Jk	.	16eJk	.	16eJk	.	.
=114	=114	=114	=114	=114	=114	=114	=114	=114	=114	=114	=114	=114	=114	=114	=114
4.AA	.	8AAL 8E 8A 8c# 8e	.	4G	.	.	4B	.	8.c#L	.	8.eL	.	8.eL	.	.
.	.	16AAL 16E 16A 16c# 16e	.	.	.	.	.	.	.	.	.	.	.	.	.
.	.	16AAJJ 16E 16A 16c# 16e	.	.	.	.	.	.	16c#Jk	.	16eJk	.	16eJk	.	.
.	.	8AAL 8E 8A 8c# 8e	.	4A	.	.	4c#	.	2cc#	.	2ee	.	2ee	.	.
8AA	.	16AAL 16E 16A 16c# 16e	.	.	.	.	.	.	.	.	.	.	.	.	.
.	.	16AAJJ 16E 16A 16c# 16e	.	.	.	.	.	.	.	.	.	.	.	.	.
4.GG	.	8AAL 8E 8A 8c# 8e	.	4B	.	.	4d	.	.	.	.	.	.	.	.
.	.	16AAL 16E 16A 16c# 16e	.	.	.	.	.	.	.	.	.	.	.	.	.
.	.	16AAJJ 16E 16A 16c# 16e	.	.	.	.	.	.	.	.	.	.	.	.	.
.	.	8AAL 8E 8A 8c# 8e	.	4c#	.	.	4e	.	8r	.	8r	.	8r	.	.
8GG	.	16AAL 16E 16A 16c# 16e	.	.	.	.	.	.	8b	.	8dd	.	8dd	.	.
.	.	16AAJJ 16E 16A 16c# 16e	.	.	.	.	.	.	.	.	.	.	.	.	.
=115	=115	=115	=115	=115	=115	=115	=115	=115	=115	=115	=115	=115	=115	=115	=115
2FF#	.	8FF#L 8C# 8F# 8A 8c# 8f#	.	4A	.	.	1c#	.	8.aL	.	8.cc#L	.	8.cc#L	.	.
.	.	16FF#L 16C# 16F# 16A 16c# 16f#	.	.	.	.	.	.	.	.	.	.	.	.	.
.	.	16FF#JJ 16C# 16F# 16A 16c# 16f#	.	.	.	.	.	.	16aJk	.	16cc#Jk	.	16cc#Jk	.	.
.	.	8FF#L 8C# 8F# 8A 8c# 8f#	.	4G	.	.	.	.	8.bL	.	8.ddL	.	8.ddL	.	.
.	.	16FF#L 16C# 16F# 16A 16c# 16f#	.	.	.	.	.	.	.	.	.	.	.	.	.
.	.	16FF#JJ 16C# 16F# 16A 16c# 16f#	.	.	.	.	.	.	16bJk	.	16ddJk	.	16ddJk	.	.
2AAA#X	.	8FF#L 8C# 8F# 8A#X 8c# 8f#	.	4F#	.	.	.	.	4cc#	.	4ee	.	4ee	.	.
.	.	16FF#L 16C# 16F# 16A# 16c# 16f#	.	.	.	.	.	.	.	.	.	.	.	.	.
.	.	16FF#JJ 16C# 16F# 16A# 16c# 16f#	.	.	.	.	.	.	.	.	.	.	.	.	.
.	.	8FF#L 8C# 8F# 8A# 8c# 8f#	.	4A#X	.	.	.	.	8.a#XL	.	8.cc#L	.	8.cc#L	.	.
.	.	16FF#L 16C# 16F# 16A# 16c# 16f#	.	.	.	.	.	.	.	.	.	.	.	.	.
.	.	16FF#JJ 16C# 16F# 16A# 16c# 16f#	.	.	.	.	.	.	16f#Jk	.	16aJk	.	16aJk	.	.
=116	=116	=116	=116	=116	=116	=116	=116	=116	=116	=116	=116	=116	=116	=116	=116
2BBB	.	8BBL 8F# 8B 8d 8f#	.	4B	.	.	4d	.	4f#	.	4a	.	4a	.	.
.	.	16BBL 16F# 16B 16d 16f#	.	.	.	.	.	.	.	.	.	.	.	.	.
.	.	16BBJJ 16F# 16B 16d 16f#	.	.	.	.	.	.	.	.	.	.	.	.	.
.	.	8BBL 8F# 8B 8d 8f#	.	8c#L	.	.	8eL	.	4b	.	4dd	.	4dd	.	.
.	.	16BBL 16F# 16B 16d 16f#	.	[8dJ	.	.	[8f#J	.	.	.	.	.	.	.	.
.	.	16BBJJ 16F# 16B 16d 16f#	.	.	.	.	.	.	.	.	.	.	.	.	.
2AAA	.	8BBL 8F# 8B 8d 8f#	.	8dL]	.	.	8f#L]	.	8dL	.	8ddL	.	8ddL	.	.
.	.	16BBL 16F# 16B 16d 16f#	.	[8f#J	.	.	[8aJ	.	8c#	.	8cc#	.	8cc#	.	.
.	.	16BBJJ 16F# 16B 16d 16f#	.	.	.	.	.	.	.	.	.	.	.	.	.
.	.	8BBL 8F# 8B 8d 8f#	.	4f#]	.	.	4a]	.	8d	.	8dd	.	8dd	.	.
.	.	16BBL 16F# 16B 16d 16f#	.	.	.	.	.	.	8eJ	.	8eeJ	.	8eeJ	.	.
.	.	16BBJJ 16F# 16B 16d 16f#	.	.	.	.	.	.	.	.	.	.	.	.	.
=117	=117	=117	=117	=117	=117	=117	=117	=117	=117	=117	=117	=117	=117	=117	=117
2EE	.	8EEL 8BB 8E 8G 8B 8e	.	[2e	.	.	2.g	.	4f#	.	4ff#	.	4ff#	.	.
.	.	16EEL 16BB 16E 16G 16B 16e	.	.	.	.	.	.	.	.	.	.	.	.	.
.	.	16EEJJ 16BB 16E 16G 16B 16e	.	.	.	.	.	.	.	.	.	.	.	.	.
.	.	8EEL 8BB 8E 8G 8B 8e	.	.	.	.	.	.	8gL	.	8ggL	.	8ggL	.	.
.	.	16EEL 16BB 16E 16G 16B 16e	.	.	.	.	.	.	[8BJ	.	[8bJ	.	[8bJ	.	.
.	.	16EEJJ 16BB 16E 16G 16B 16e	.	.	.	.	.	.	.	.	.	.	.	.	.
4EE	.	8EEL 8BB 8E 8G 8B 8e	.	8eL]	.	.	.	.	4B]	.	4b]	.	4b]	.	.
.	.	16EEL 16BB 16E 16G 16B 16e	.	8d	.	.	.	.	.	.	.	.	.	.	.
.	.	16EEJJ 16BB 16E 16G 16B 16e	.	.	.	.	.	.	.	.	.	.	.	.	.
4EE	.	8EEL 8BB 8E 8G 8B 8e	.	8c#	.	.	4g	.	8dL	.	8ddL	.	8ddL	.	.
.	.	16EEL 16BB 16E 16G 16B 16e	.	8BJ	.	.	.	.	[8f#J	.	[8ff#J	.	[8ff#J	.	.
.	.	16EEJJ 16BB 16E 16G 16B 16e	.	.	.	.	.	.	.	.	.	.	.	.	.
=118	=118	=118	=118	=118	=118	=118	=118	=118	=118	=118	=118	=118	=118	=118	=118
2AA	.	8AAL 8E 8A 8c# 8e	.	1A	.	.	1e	.	4f#]	.	4ff#]	.	4ff#]	.	.
.	.	16AAL 16E 16A 16c# 16e	.	.	.	.	.	.	.	.	.	.	.	.	.
.	.	16AAJJ 16E 16A 16c# 16e	.	.	.	.	.	.	.	.	.	.	.	.	.
.	.	8AAL 8E 8A 8c# 8e	.	.	.	.	.	.	16gLL	.	16ggLL	.	16ggLL	.	.
.	.	.	.	.	.	.	.	.	16gJ	.	16ggJ	.	16ggJ	.	.
.	.	16AAL 16E 16A 16c# 16e	.	.	.	.	.	.	[8eJ	.	[8eeJ	.	[8eeJ	.	.
.	.	16AAJJ 16E 16A 16c# 16e	.	.	.	.	.	.	.	.	.	.	.	.	.
4AA	.	8AAL 8E 8A 8c# 8e	.	.	.	.	.	.	8eL]	.	8eeL]	.	8eeL]	.	.
.	.	16AAL 16E 16A 16c# 16e	.	.	.	.	.	.	8d	.	8dd	.	8dd	.	.
.	.	16AAJJ 16E 16A 16c# 16e	.	.	.	.	.	.	.	.	.	.	.	.	.
4AA	.	8AAL 8E 8A 8c# 8e	.	.	.	.	.	.	8d	.	8dd	.	8dd	.	.
.	.	16AAL 16E 16A 16c# 16e	.	.	.	.	.	.	[8dJ	.	[8ddJ	.	[8ddJ	.	.
.	.	16AAJJ 16E 16A 16c# 16e	.	.	.	.	.	.	.	.	.	.	.	.	.
=119	=119	=119	=119	=119	=119	=119	=119	=119	=119	=119	=119	=119	=119	=119	=119
2BB	<	8BBL 8F# 8B 8d 8f#	<	4B	<	.	4d	<	1d]	<	2dd]	<	2dd]	.	.
.	.	16BBL 16F# 16B 16d 16f#	.	.	.	.	.	.	.	.	.	.	.	.	.
.	.	16BBJJ 16F# 16B 16d 16f#	.	.	.	.	.	.	.	.	.	.	.	.	.
.	.	8BBL 8F# 8B 8d 8f#	.	8AL	.	.	8c#L	.	.	.	.	.	.	.	.
.	.	16BBL 16F# 16B 16d 16f#	.	[8F#J	.	.	[8AJ	.	.	.	.	.	.	.	.
.	.	16BBJJ 16F# 16B 16d 16f#	.	.	.	.	.	.	.	.	.	.	.	.	.
2BB	.	8BBL 8F# 8B 8d 8f#	.	8F#]	.	.	8A]	.	.	.	2r	.	2r	.	.
.	.	16BBL 16F# 16B 16d 16f#	.	4B	.	.	4d	.	.	.	.	.	.	.	.
.	.	16BBJJ 16F# 16B 16d 16f#	.	.	.	.	.	.	.	.	.	.	.	.	.
.	.	8BBL 8F# 8B 8d 8f#	.	.	.	.	.	.	.	.	.	.	.	.	.
.	.	16BBL 16F# 16B 16d 16f#	.	[8A	.	.	[8c#	.	.	.	.	.	.	.	.
.	.	16BBJJ 16F# 16B 16d 16f#	.	.	.	.	.	.	.	.	.	.	.	.	.
=120	=120	=120	=120	=120	=120	=120	=120	=120	=120	=120	=120	=120	=120	=120	=120
2BB	.	8BBL 8F# 8B 8d 8f#	.	8A]	.	.	8c#]	.	4b	.	4dd	.	4dd	.	.
.	.	16BBL 16F# 16B 16d 16f#	.	4F#	.	.	4A	.	.	.	.	.	.	.	.
.	.	16BBJJ 16F# 16B 16d 16f#	.	.	.	.	.	.	.	.	.	.	.	.	.
.	.	8BBL 8F# 8B 8d 8f#	.	.	.	.	.	.	4cc#	.	4ee	.	4ee	.	.
.	.	16BBL 16F# 16B 16d 16f#	.	8E	.	.	8e	.	.	.	.	.	.	.	.
.	.	16BBJJ 16F# 16B 16d 16f#	.	.	.	.	.	.	.	.	.	.	.	.	.
2AA	.	8DL 8A 8d 8f#	.	8DL	.	.	8dL	.	4dd	.	4ff#	.	4ff#	.	.
.	.	16DL 16A 16d 16f#	.	8C#J	.	.	8c#J	.	.	.	.	.	.	.	.
.	.	16DJJ 16A 16d 16f#	.	.	.	.	.	.	.	.	.	.	.	.	.
.	.	8DL 8A 8d 8f#	.	4AA	.	.	4A	.	8bL	.	8ddL	.	8ddL	.	.
.	.	16DL 16A 16d 16f#	.	.	.	.	.	.	8gJ	.	8bJ	.	8bJ	.	.
.	.	16DJJ 16A 16d 16f#	.	.	.	.	.	.	.	.	.	.	.	.	.
=121	=121	=121	=121	=121	=121	=121	=121	=121	=121	=121	=121	=121	=121	=121	=121
2GG	.	8GGL 8D 8G 8B 8d 8f#	.	4B	.	.	4d	.	4g	.	4b	.	4b	.	.
.	.	16GGL 16D 16G 16B 16d 16f#	.	.	.	.	.	.	.	.	.	.	.	.	.
.	.	16GGJJ 16D 16G 16B 16d 16f#	.	.	.	.	.	.	.	.	.	.	.	.	.
.	.	8GGL 8D 8G 8B 8d 8f#	.	8AL	.	.	8c#L	.	2dd	.	2ff#	.	2ff#	.	.
.	.	16GGL 16D 16G 16B 16d 16f#	.	[8GJ	.	.	[8AJ	.	.	.	.	.	.	.	.
.	.	16GGJJ 16D 16G 16B 16d 16f#	.	.	.	.	.	.	.	.	.	.	.	.	.
2GG	.	8GGL 8D 8G 8B 8d 8f#	.	8G]	.	.	8A]	.	.	.	.	.	.	.	.
.	.	16GGL 16D 16G 16B 16d 16f#	.	4B	.	.	4d	.	.	.	.	.	.	.	.
.	.	16GGJJ 16D 16G 16B 16d 16f#	.	.	.	.	.	.	.	.	.	.	.	.	.
.	.	8GGL 8D 8G 8B 8d 8f#	.	.	.	.	.	.	4r	.	4r	.	4r	.	.
.	.	16GGL 16D 16G 16B 16d 16f#	.	[8A	.	.	[8c#	.	.	.	.	.	.	.	.
.	.	16GGJJ 16D 16G 16B 16d 16f#	.	.	.	.	.	.	.	.	.	.	.	.	.
=122	=122	=122	=122	=122	=122	=122	=122	=122	=122	=122	=122	=122	=122	=122	=122
2GG	.	8GGL 8D 8G 8B 8d 8f#	.	8A]	.	.	8c#]	.	4b	.	4dd	.	4dd	.	.
.	.	16GGL 16D 16G 16B 16d 16f#	.	4F#	.	.	4A	.	.	.	.	.	.	.	.
.	.	16GGJJ 16D 16G 16B 16d 16f#	.	.	.	.	.	.	.	.	.	.	.	.	.
.	.	8GGL 8D 8G 8B 8d 8f#	.	.	.	.	.	.	4cc#	.	4ee	.	4ee	.	.
.	.	16GGL 16D 16G 16B 16d 16f#	.	8f#	.	.	8a	.	.	.	.	.	.	.	.
.	.	16GGJJ 16D 16G 16B 16d 16f#	.	.	.	.	.	.	.	.	.	.	.	.	.
2FF#	.	8BBL 8F# 8B 8d 8f#	.	8eL	.	.	8gL	.	4dd	.	4ff#	.	4ff#	.	.
.	.	16BBL 16F# 16B 16d 16f#	.	8dJ	.	.	8f#J	.	.	.	.	.	.	.	.
.	.	16BBJJ 16F# 16B 16d 16f#	.	.	.	.	.	.	.	.	.	.	.	.	.
.	.	8BBL 8F# 8B 8d 8f#	.	4B	.	.	4d	.	8bL	.	8ddL	.	8ddL	.	.
.	.	16BBL 16F# 16B 16d 16f#	.	.	.	.	.	.	8gJ	.	8bJ	.	8bJ	.	.
.	.	16BBJJ 16F# 16B 16d 16f#	.	.	.	.	.	.	.	.	.	.	.	.	.
=123	=123	=123	=123	=123	=123	=123	=123	=123	=123	=123	=123	=123	=123	=123	=123
4.EE	.	8EEL 8BB 8E 8G 8B 8e	.	4G	.	.	4B	.	4g	.	4b	.	4b	.	.
.	.	16EEL 16BB 16E 16G 16B 16e	.	.	.	.	.	.	.	.	.	.	.	.	.
.	.	16EEJJ 16BB 16E 16G 16B 16e	.	.	.	.	.	.	.	.	.	.	.	.	.
.	.	8EEL 8BB 8E 8G 8B 8e	.	4A	.	.	4c#	.	[2.ee	.	[2.aa	.	[2.aa	.	.
8EE	.	16EEL 16BB 16E 16G 16B 16e	.	.	.	.	.	.	.	.	.	.	.	.	.
.	.	16EEJJ 16BB 16E 16G 16B 16e	.	.	.	.	.	.	.	.	.	.	.	.	.
4.EE	.	8EEL 8BB 8E 8G 8B 8e	.	4B	.	.	4d	.	.	.	.	.	.	.	.
.	.	16EEL 16BB 16E 16G 16B 16e	.	.	.	.	.	.	.	.	.	.	.	.	.
.	.	16EEJJ 16BB 16E 16G 16B 16e	.	.	.	.	.	.	.	.	.	.	.	.	.
.	.	8EEL 8BB 8E 8G 8B 8e	.	4c#	.	.	4e	.	.	.	.	.	.	.	.
8EE	.	16EEL 16BB 16E 16G 16B 16e	.	.	.	.	.	.	.	.	.	.	.	.	.
.	.	16EEJJ 16BB 16E 16G 16B 16e	.	.	.	.	.	.	.	.	.	.	.	.	.
=124	=124	=124	=124	=124	=124	=124	=124	=124	=124	=124	=124	=124	=124	=124	=124
1AA	[[	8EEL 8BB 8E 8G 8B 8e	.	4d	.	.	4g	.	1ee_	[[	1aa_	[[	1aa_	.	.
.	.	16EEL 16BB 16E 16G 16B 16e	.	.	.	.	.	.	.	.	.	.	.	.	.
.	.	16EEJJ 16BB 16E 16G 16B 16e	.	.	.	.	.	.	.	.	.	.	.	.	.
.	.	8EEL 8BB 8E 8G 8B 8e	.	4e	.	.	[4a	.	.	.	.	.	.	.	.
.	.	16EEL 16BB 16E 16G 16B 16e	.	.	.	.	.	.	.	.	.	.	.	.	.
.	.	16EEJJ 16BB 16E 16G 16B 16e	.	.	.	.	.	.	.	.	.	.	.	.	.
.	.	8AAL 8E 8A 8c# 8e	.	8eL	.	.	4a]	.	.	.	.	.	.	.	.
.	.	16AAL 16E 16A 16c# 16e	.	8d	.	.	.	.	.	.	.	.	.	.	.
.	.	16AAJJ 16E 16A 16c# 16e	.	.	.	.	.	.	.	.	.	.	.	.	.
.	.	8AAL 8E 8A 8c# 8e	.	8B	.	.	8BL	.	.	.	.	.	.	.	.
.	.	16AAL 16E 16A 16c# 16e	.	8c#J	[[	.	8c#J	[[	.	.	.	.	.	.	.
.	.	16AAJJ 16E 16A 16c# 16e	[[	.	.	.	.	.	.	.	.	.	.	.	.
=125||	=125||	=125||	=125||	=125||	=125||	=125||	=125||	=125||	=125||	=125||	=125||	=125||	=125||	=125||	=125||
2BB	.	4BB 4F# 4B 4d 4f#	.	4d	.	.	4d	.	4ee]	.	4aa]	.	4aa]	.	.
.	.	8BBL 8F# 8B 8d 8f#	.	8F#L	.	.	8F#L	.	4r	.	4r	.	4r	.	.
.	.	[8GGJ [8BB [8D [8G [8B [8g	.	[8GJ	.	.	[8GJ	.	.	.	.	.	.	.	.
4.GG	.	8GGL] 8BB] 8D] 8G] 8B] 8g]	.	8GL]	.	.	8GL]	.	2r	.	2r	.	2r	.	.
.	.	8GG 8BB 8D 8G 8B 8g	.	8e	.	.	8e	.	.	.	.	.	.	.	.
.	.	8GG 8BB 8D 8G 8B 8g	.	8d	.	.	8d	.	.	.	.	.	.	.	.
[8AA	.	[8AAJ [8E [8A [8c# [8e	.	[8c#J	.	.	[8c#J	.	.	.	.	.	.	.	.
=126	=126	=126	=126	=126	=126	=126	=126	=126	=126	=126	=126	=126	=126	=126	=126
8AA]	.	8AAL] 8E] 8A] 8c#] 8e]	.	8c#L]	.	.	8c#L]	.	1r	.	1r	.	1r	.	.
4.AA	.	8AAJ 8E 8A 8c# 8e	.	8B	.	.	8B	.	.	.	.	.	.	.	.
.	.	8r	.	8c#	.	.	8c#	.	.	.	.	.	.	.	.
.	.	[8D [8A [8d [8f#	.	[8dJ	.	.	[8dJ	.	.	.	.	.	.	.	.
2DD	.	8DL] 8A] 8d] 8f#]	.	8dL]	.	.	8dL]	.	.	.	.	.	.	.	.
.	.	8D 8A 8d 8f#	.	8a	.	.	8a	.	.	.	.	.	.	.	.
.	.	8D 8A 8d 8f#	.	8g	.	.	8g	.	.	.	.	.	.	.	.
.	.	8DJ 8A 8d 8f#	.	[8f#J	.	.	[8f#J	.	.	.	.	.	.	.	.
=127	=127	=127	=127	=127	=127	=127	=127	=127	=127	=127	=127	=127	=127	=127	=127
2GG	.	4GG 4BB 4D 4G 4B 4g	.	4f#]	.	.	4f#]	.	1r	.	1r	.	1r	.	.
.	.	8GGL 8BB 8D 8G 8B 8g	.	8eL	.	.	8eL	.	.	.	.	.	.	.	.
.	.	[8EEJ [8BB [8E [8G#X [8B [8e	.	[8dJ	.	.	[8dJ	.	.	.	.	.	.	.	.
2EE	.	8EEL] 8BB] 8E] 8G#] 8B] 8e]	.	2d]	.	.	2d]	.	.	.	.	.	.	.	.
.	.	8EEJ 8BB 8E 8G# 8B 8e	.	.	.	.	.	.	.	.	.	.	.	.	.
.	.	4EE 4BB 4E 4G# 4B 4e	.	.	.	.	.	.	.	.	.	.	.	.	.
=128	=128	=128	=128	=128	=128	=128	=128	=128	=128	=128	=128	=128	=128	=128	=128
2AA	.	8AAL 8E 8A 8d 8e	.	8dL	.	.	8dL	.	2.r	.	2.r	.	1r	.	.
.	.	8AA 8E 8A 8d 8e	.	8e	.	.	8e	.	.	.	.	.	.	.	.
.	.	8AA 8E 8A 8d 8e	.	8B	.	.	8B	.	.	.	.	.	.	.	.
.	.	[8FF#J [8C# [8F# [8A#X [8c# [8f#	.	[8c#J	.	.	[8c#J	.	.	.	.	.	.	.	.
2FF#	>]	8FF#L] 8C#] 8F#] 8A#] 8c#] 8f#]	>	4c#]	>	.	2c#]	>]	.	.	.	.	.	.	.
.	.	8FF# 8C# 8F# 8A# 8c# 8f#	.	.	.	.	.	.	.	.	.	.	.	.	.
.	.	8FF# 8C# 8F# 8A# 8c# 8f#	.	4FF#	]]	.	.	.	8gL	mf	8bL	mf	.	.	.
.	.	8FF#J 8C# 8F# 8A# 8c# 8f#	]]	.	.	.	.	.	8aJ	.	8cc#J	.	.	.	.
=129	=129	=129	=129	=129	=129	=129	=129	=129	=129	=129	=129	=129	=129	=129	=129
2BB	.	4BB 4F# 4B 4d 4f#	.	8BBL	.	.	[2d	.	4b	.	4dd	.	1r	.	.
.	.	.	.	8BB	.	.	.	.	.	.	.	.	.	.	.
.	.	8BBL 8F# 8B 8d 8f#	.	8FF#	.	.	.	.	8dL	.	8f#L	.	.	.	.
.	.	[8GGJ [8BB [8D [8G [8B [8g	.	[8GGJ	.	.	.	.	[8eJ	.	[8gJ	.	.	.	.
4.GG	.	8GGL] 8BB] 8D] 8G] 8B] 8g]	.	8GGL]	.	.	8dL]	.	8eL]	.	8gL]	.	.	.	.
.	.	8GG 8BB 8D 8G 8B 8g	.	8GG	.	.	8e	.	8cc#	.	8ee	.	.	.	.
.	.	8GG 8BB 8D 8G 8B 8g	.	8GG	.	.	8d	.	8b	.	8dd	.	.	.	.
[8AA	.	[8AAJ [8E [8A [8c# [8e	.	8GGJ	.	.	[8c#J	.	[8aJ	.	[8cc#J	.	.	.	.
=130	=130	=130	=130	=130	=130	=130	=130	=130	=130	=130	=130	=130	=130	=130	=130
8AA]	.	8AAL] 8E] 8A] 8c#] 8e]	.	8AAL	.	.	4.c#]	.	8aL]	.	8cc#L]	.	1r	.	.
4.AA	.	8AAJ 8E 8A 8c# 8e	.	8AA	.	.	.	.	8d	.	8b	.	.	.	.
.	.	8r	.	8C#	.	.	.	.	8e	.	8cc#	.	.	.	.
.	.	[8D [8A [8d [8f#	.	[8DJ	.	.	[8d	.	[8f#J	.	[8ddJ	.	.	.	.
2DD	.	8DL] 8A] 8d] 8f#]	.	8DL]	.	.	8dL]	.	8f#L]	.	8ddL]	.	.	.	.
.	.	8D 8A 8d 8f#	.	8D	.	.	8a	.	8ff#	.	8aa	.	.	.	.
.	.	8D 8A 8d 8f#	.	8D	.	.	8g	.	8ee	.	8gg	.	.	.	.
.	.	8DJ 8A 8d 8f#	.	8F#J	.	.	[8f#J	.	[8ddJ	.	[8ff#J	.	.	.	.
=131	=131	=131	=131	=131	=131	=131	=131	=131	=131	=131	=131	=131	=131	=131	=131
2GG	.	4GG 4BB 4D 4G 4B 4g	.	8GL	.	.	4f#]	.	4dd]	.	4ff#]	.	1r	.	.
.	.	.	.	8G	.	.	.	.	.	.	.	.	.	.	.
.	.	8GGL 8BB 8D 8G 8B 8g	.	8F#	.	.	8eL	.	8aL	.	8eeL	.	.	.	.
.	.	[8EEJ [8BB [8E [8G#X [8B [8e	.	8EJ	.	.	[8dJ	.	[8g#XJ	.	[8ddJ	.	.	.	.
2EE	.	8EEL] 8BB] 8E] 8G#] 8B] 8e]	.	8EL	.	.	8dL]	.	8g#L]	.	8ddL]	.	.	.	.
.	.	8EEJ 8BB 8E 8G# 8B 8e	.	8E	.	.	8eJ	.	8g#J	.	8eeJ	.	.	.	.
.	.	4EE 4BB 4E 4G# 4B 4e	.	8E	.	.	4f#	.	4b	.	4ff#	.	.	.	.
.	.	.	.	8EJ	.	.	.	.	.	.	.	.	.	.	.
=132	=132	=132	=132	=132	=132	=132	=132	=132	=132	=132	=132	=132	=132	=132	=132
1AA	>	8DL 8A 8d 8f#	>	8AAL	>	.	8f#L	>	4.dd 4.ff#	>	4.ff#	>	1r	.	.
.	.	8d	.	8AA	.	.	8d	.	.	.	.	.	.	.	.
.	.	8A	.	8AA	.	.	8A	.	.	.	.	.	.	.	.
.	.	[8f#J	.	8AAJ	.	.	8eJ	.	[8cc# [8ee	.	[8ee	.	.	.	.
.	.	8f#L]	.	8AAL	.	.	4a	.	4cc#] 4ee]	.	4ee]	.	.	.	.
.	.	8dJ	.	8AA	.	.	.	.	.	.	.	.	.	.	.
.	.	4A	.	8AA	.	.	4d	.	4b 4dd	.	4dd	.	.	.	.
.	.	.	.	8AAJ	.	.	.	.	.	.	.	.	.	.	.
=133	=133	=133	=133	=133	=133	=133	=133	=133	=133	=133	=133	=133	=133	=133	=133
[2.AA	.	2AA 2E 2A 2c# 2e	.	8AAL	.	.	4c#	.	[2.aa [2.ccc#	.	[2.cc#	.	1r	.	.
.	.	.	.	8AA	.	.	.	.	.	.	.	.	.	.	.
.	.	.	.	8AA	.	.	8BL	.	.	.	.	.	.	.	.
.	.	.	.	8AAJ	.	.	[8AJ	.	.	.	.	.	.	.	.
.	.	(8qc#/	.	.	.	.	.	.	.	.	.	.	.	.	.
.	.	8dL)	.	8AAL	.	.	8A]	.	.	.	.	.	.	.	.
.	.	8c#	.	8AA	.	.	4E	.	.	.	.	.	.	.	.
8AAL]	.	8d	.	8AA	.	.	.	.	8aaL] 8ccc#]	.	8cc#L]	.	.	.	.
*	*	*	*	*	*	*	*^	*	*	*	*	*	*	*	*
[8GGJ	]]	[8GGJ [8BB [8D [8G [8B [8f#	]]	[8GGJ	]]	.	[8c#	[8A	.	[8gJ	]]	[8aaJ [8ccc#	]]	.	.	.
=134	=134	=134	=134	=134	=134	=134	=134	=134	=134	=134	=134	=134	=134	=134	=134	=134
1GG]	.	1GG_ 1BB_ 1D_ 1G_ 1B_ 1f#_	.	1GG]	.	.	4c#]	8A]	]	1g_	.	4.aa] 4.ccc#]	.	1r	.	.
.	.	.	.	.	.	.	.	4E	.	.	.	.	.	.	.	.
.	.	.	.	.	.	.	8r	.	.	.	.	.	.	.	.	.
.	.	.	.	.	.	.	[8d	8G	.	.	.	[8gg [8bb	.	.	.	.
.	.	.	.	.	.	.	8dL]	8BBL	.	.	.	4gg] 4bb]	.	.	.	.
.	.	.	.	.	.	.	[8BJ	8BB	.	.	.	.	.	.	.	.
.	.	.	.	.	.	.	4B]	8D	.	.	.	4bb 4ddd	.	.	.	.
.	.	.	.	.	.	.	.	8DJ	.	.	.	.	.	.	.	.
=135	=135	=135	=135	=135	=135	=135	=135	=135	=135	=135	=135	=135	=135	=135	=135	=135
1GGG;	.	1GG;] 1BB] 1D] 1G] 1B] 1f#]	.	8GGL	.	.	8c#L	8EL	.	1g;]	.	1ddd;	.	1r	.	.
.	.	.	.	8D	.	.	8d	8F#	.	.	.	.	.	.	.	.
.	.	.	.	8A	.	.	8c#	8E	.	.	.	.	.	.	.	.
.	.	.	.	[8G;J	.	.	[8B;J	[8DJ	.	.	.	.	.	.	.	.
.	.	.	.	2G]	.	.	2B]	2D]	.	.	.	.	.	.	.	.
*	*	*	*	*	*	*	*v	*v	*	*	*	*	*	*	*	*
==	==	==	==	==	==	==	==	==	==	==	==	==	==	==	==
*-	*-	*-	*-	*-	*-	*-	*-	*-	*-	*-	*-	*-	*-	*-	*-
